; CYBNChalls 1.0.0.16
; GRBL device profile, absolute coords
; Bounds: X3.84 Y2.35 to X136.48 Y12.25
G00 G17 G40 G21 G54
G90
M4
; Cut @ 1000 mm/sec, 100% power
M8
G0X5.14Y5.226
M3
; Layer C00 Pass 1 of 3
G1X4.941Y5.333S1000F60000
G1X4.757Y5.464
G1X4.588Y5.618
G1X4.433Y5.796
G1X4.175Y6.195
G1X3.991Y6.631
G1X3.881Y7.104
G1X3.844Y7.615
G1X3.877Y8.155
G1X3.977Y8.694
G1X4.143Y9.232
G1X4.376Y9.77
G1X4.668Y10.279
G1X5.009Y10.726
G1X5.401Y11.111
G1X5.844Y11.434
G1X6.306Y11.692
G1X6.752Y11.876
G1X7.182Y11.986
G1X7.596Y12.023
G1X7.827Y12.007
G1X8.07Y11.96
G1X8.325Y11.881
G1X8.593Y11.77
G1X8.755Y11.7
G1X8.888Y11.65
G1X8.992Y11.62
G1X9.069Y11.61
G1X9.174Y11.627
G1X9.284Y11.678
G1X9.399Y11.764
G1X9.518Y11.884
G1X9.593Y11.949
G1X9.663Y11.971
G1X9.729Y11.949
G1X9.751Y11.884
G1X9.535Y11.064
G1X9.429Y10.607
G1X9.351Y10.201
G1X9.301Y9.847
G1X9.265Y9.747
G1X9.187Y9.713
G1X9.145Y9.723
G1X9.12Y9.754
G1X9.106Y9.844
G1X9.094Y10.018
G1X9.041Y10.473
G1X8.937Y10.856
G1X8.782Y11.168
G1X8.578Y11.408
G1X8.345Y11.587
G1X8.104Y11.714
G1X7.852Y11.791
G1X7.591Y11.816
G1X7.265Y11.785
G1X6.951Y11.692
G1X6.648Y11.537
G1X6.356Y11.32
G1X6.081Y11.039
G1X5.826Y10.69
G1X5.59Y10.274
G1X5.374Y9.791
G1X5.195Y9.267
G1X5.068Y8.724
G1X4.991Y8.161
G1X4.965Y7.579
G1X4.994Y7.097
G1X5.079Y6.669
G1X5.221Y6.296
G1X5.42Y5.977
G1X5.664Y5.721
G1X5.941Y5.539
G1X6.251Y5.429
G1X6.593Y5.393
G1X6.887Y5.416
G1X7.184Y5.485
G1X7.484Y5.599
G1X7.787Y5.76
G1X8.081Y5.962
G1X8.348Y6.198
G1X8.587Y6.466
G1X8.8Y6.768
G1X8.886Y6.876
G1X8.96Y6.912
G1X9.03Y6.889
G1X9.053Y6.819
G1X9.03Y6.735
G1X8.961Y6.61
G1X8.847Y6.445
G1X8.686Y6.24
G1X8.483Y6.02
G1X8.237Y5.809
G1X7.946Y5.607
G1X7.611Y5.414
G1X7.248Y5.249
G1X6.872Y5.131
G1X6.483Y5.06
G1X6.082Y5.036
G1X5.824Y5.048
G1X5.581Y5.084
G1X5.353Y5.143
G1X5.14Y5.226
; Layer C00 Pass 2 of 3
G1X4.941Y5.333
G1X4.757Y5.464
G1X4.588Y5.618
G1X4.433Y5.796
G1X4.175Y6.195
G1X3.991Y6.631
G1X3.881Y7.104
G1X3.844Y7.615
G1X3.877Y8.155
G1X3.977Y8.694
G1X4.143Y9.232
G1X4.376Y9.77
G1X4.668Y10.279
G1X5.009Y10.726
G1X5.401Y11.111
G1X5.844Y11.434
G1X6.306Y11.692
G1X6.752Y11.876
G1X7.182Y11.986
G1X7.596Y12.023
G1X7.827Y12.007
G1X8.07Y11.96
G1X8.325Y11.881
G1X8.593Y11.77
G1X8.755Y11.7
G1X8.888Y11.65
G1X8.992Y11.62
G1X9.069Y11.61
G1X9.174Y11.627
G1X9.284Y11.678
G1X9.399Y11.764
G1X9.518Y11.884
G1X9.593Y11.949
G1X9.663Y11.971
G1X9.729Y11.949
G1X9.751Y11.884
G1X9.535Y11.064
G1X9.429Y10.607
G1X9.351Y10.201
G1X9.301Y9.847
G1X9.265Y9.747
G1X9.187Y9.713
G1X9.145Y9.723
G1X9.12Y9.754
G1X9.106Y9.844
G1X9.094Y10.018
G1X9.041Y10.473
G1X8.937Y10.856
G1X8.782Y11.168
G1X8.578Y11.408
G1X8.345Y11.587
G1X8.104Y11.714
G1X7.852Y11.791
G1X7.591Y11.816
G1X7.265Y11.785
G1X6.951Y11.692
G1X6.648Y11.537
G1X6.356Y11.32
G1X6.081Y11.039
G1X5.826Y10.69
G1X5.59Y10.274
G1X5.374Y9.791
G1X5.195Y9.267
G1X5.068Y8.724
G1X4.991Y8.161
G1X4.965Y7.579
G1X4.994Y7.097
G1X5.079Y6.669
G1X5.221Y6.296
G1X5.42Y5.977
G1X5.664Y5.721
G1X5.941Y5.539
G1X6.251Y5.429
G1X6.593Y5.393
G1X6.887Y5.416
G1X7.184Y5.485
G1X7.484Y5.599
G1X7.787Y5.76
G1X8.081Y5.962
G1X8.348Y6.198
G1X8.587Y6.466
G1X8.8Y6.768
G1X8.886Y6.876
G1X8.96Y6.912
G1X9.03Y6.889
G1X9.053Y6.819
G1X9.03Y6.735
G1X8.961Y6.61
G1X8.847Y6.445
G1X8.686Y6.24
G1X8.483Y6.02
G1X8.237Y5.809
G1X7.946Y5.607
G1X7.611Y5.414
G1X7.248Y5.249
G1X6.872Y5.131
G1X6.483Y5.06
G1X6.082Y5.036
G1X5.824Y5.048
G1X5.581Y5.084
G1X5.353Y5.143
G1X5.14Y5.226
; Layer C00 Pass 3 of 3
G1X4.941Y5.333
G1X4.757Y5.464
G1X4.588Y5.618
G1X4.433Y5.796
G1X4.175Y6.195
G1X3.991Y6.631
G1X3.881Y7.104
G1X3.844Y7.615
G1X3.877Y8.155
G1X3.977Y8.694
G1X4.143Y9.232
G1X4.376Y9.77
G1X4.668Y10.279
G1X5.009Y10.726
G1X5.401Y11.111
G1X5.844Y11.434
G1X6.306Y11.692
G1X6.752Y11.876
G1X7.182Y11.986
G1X7.596Y12.023
G1X7.827Y12.007
G1X8.07Y11.96
G1X8.325Y11.881
G1X8.593Y11.77
G1X8.755Y11.7
G1X8.888Y11.65
G1X8.992Y11.62
G1X9.069Y11.61
G1X9.174Y11.627
G1X9.284Y11.678
G1X9.399Y11.764
G1X9.518Y11.884
G1X9.593Y11.949
G1X9.663Y11.971
G1X9.729Y11.949
G1X9.751Y11.884
G1X9.535Y11.064
G1X9.429Y10.607
G1X9.351Y10.201
G1X9.301Y9.847
G1X9.265Y9.747
G1X9.187Y9.713
G1X9.145Y9.723
G1X9.12Y9.754
G1X9.106Y9.844
G1X9.094Y10.018
G1X9.041Y10.473
G1X8.937Y10.856
G1X8.782Y11.168
G1X8.578Y11.408
G1X8.345Y11.587
G1X8.104Y11.714
G1X7.852Y11.791
G1X7.591Y11.816
G1X7.265Y11.785
G1X6.951Y11.692
G1X6.648Y11.537
G1X6.356Y11.32
G1X6.081Y11.039
G1X5.826Y10.69
G1X5.59Y10.274
G1X5.374Y9.791
G1X5.195Y9.267
G1X5.068Y8.724
G1X4.991Y8.161
G1X4.965Y7.579
G1X4.994Y7.097
G1X5.079Y6.669
G1X5.221Y6.296
G1X5.42Y5.977
G1X5.664Y5.721
G1X5.941Y5.539
G1X6.251Y5.429
G1X6.593Y5.393
G1X6.887Y5.416
G1X7.184Y5.485
G1X7.484Y5.599
G1X7.787Y5.76
G1X8.081Y5.962
G1X8.348Y6.198
G1X8.587Y6.466
G1X8.8Y6.768
G1X8.886Y6.876
G1X8.96Y6.912
G1X9.03Y6.889
G1X9.053Y6.819
G1X9.03Y6.735
G1X8.961Y6.61
G1X8.847Y6.445
G1X8.686Y6.24
G1X8.483Y6.02
G1X8.237Y5.809
G1X7.946Y5.607
G1X7.611Y5.414
G1X7.248Y5.249
G1X6.872Y5.131
G1X6.483Y5.06
G1X6.082Y5.036
G1X5.824Y5.048
G1X5.581Y5.084
G1X5.353Y5.143
G1X5.14Y5.226
G0X10.526Y5.217
; Layer C00 Pass 1 of 3
G1X10.539Y5.264
G1X10.578Y5.29
G1X10.617
G1X10.682Y5.304
G1X10.774
G1X10.893Y5.315
G1X11.155Y5.346
G1X11.39Y5.42
G1X11.597Y5.539
G1X11.776Y5.703
G1X11.861Y5.817
G1X11.949Y5.971
G1X12.041Y6.164
G1X12.137Y6.397
G1X12.236Y6.669
G1X12.339Y6.981
G1X12.446Y7.333
G1X12.557Y7.724
G1X12.662Y8.123
G1X12.753Y8.497
G1X12.831Y8.847
G1X12.894Y9.171
G1X12.943Y9.469
G1X12.978Y9.743
G1X12.999Y9.991
G1Y10.214
G1Y10.536
G1X12.948Y10.813
G1X12.875Y11.045
G1X12.774Y11.232
G1X12.654Y11.377
G1X12.523Y11.48
G1X12.38Y11.542
G1X12.226Y11.563
G1X12.071Y11.551
G1X11.916Y11.513
G1X11.761Y11.45
G1X11.606Y11.362
G1X11.332Y11.15
G1X11.13Y10.907
G1X11.051Y10.764
G1X10.973Y10.593
G1X10.896Y10.394
G1X10.82Y10.168
G1X10.717Y9.842
G1X10.682Y9.788
G1X10.629Y9.77
G1X10.563Y9.793
G1X10.541Y9.863
G1X10.558Y10.035
G1X10.609Y10.24
G1X10.692Y10.479
G1X10.81Y10.752
G1X10.957Y11.025
G1X11.128Y11.266
G1X11.324Y11.475
G1X11.544Y11.651
G1X11.778Y11.791
G1X12.01Y11.891
G1X12.241Y11.951
G1X12.469Y11.971
G1X12.717Y11.941
G1X12.949Y11.849
G1X13.166Y11.695
G1X13.368Y11.48
G1X13.54Y11.213
G1X13.663Y10.895
G1X13.736Y10.528
G1X13.761Y10.111
G1X13.738Y9.439
G1X13.668Y8.798
G1X14.247Y9.868
G1X14.602Y10.443
G1X15.017Y10.979
G1X15.241Y11.222
G1X15.47Y11.434
G1X15.703Y11.615
G1X15.942Y11.765
G1X16.182Y11.882
G1X16.418Y11.966
G1X16.65Y12.017
G1X16.877Y12.033
G1X17.027Y12.02
G1X17.162Y11.978
G1X17.283Y11.908
G1X17.388Y11.811
G1X17.477Y11.698
G1X17.54Y11.583
G1X17.577Y11.463
G1X17.59Y11.341
G1X17.555Y11.125
G1X17.45Y10.922
G1X17.375Y10.839
G1X17.284Y10.779
G1X17.176Y10.743
G1X17.053Y10.731
G1X16.891Y10.754
G1X16.768Y10.824
G1X16.712Y10.892
G1X16.643Y10.997
G1X16.56Y11.14
G1X16.463Y11.32
G1X16.402Y11.417
G1X16.333Y11.487
G1X16.255Y11.529
G1X16.169Y11.542
G1X16.071Y11.53
G1X15.964Y11.493
G1X15.848Y11.432
G1X15.723Y11.346
G1X15.589Y11.236
G1X15.445Y11.101
G1X15.292Y10.941
G1X15.13Y10.757
G1X14.963Y10.547
G1X14.794Y10.311
G1X14.623Y10.049
G1X14.451Y9.76
G1X14.277Y9.444
G1X14.101Y9.102
G1X13.924Y8.734
G1X13.745Y8.339
G1X13.577Y7.944
G1X13.431Y7.577
G1X13.308Y7.237
G1X13.207Y6.925
G1X13.128Y6.64
G1X13.072Y6.383
G1X13.038Y6.153
G1X13.027Y5.951
G1X13.04Y5.803
G1X13.077Y5.673
G1X13.14Y5.563
G1X13.229Y5.471
G1X13.337Y5.398
G1X13.461Y5.345
G1X13.601Y5.313
G1X13.756Y5.3
G1X13.908
G1X14.024
G1X14.104Y5.288
G1X14.148
G1X14.187Y5.25
G1X14.2Y5.202
G1X14.187Y5.161
G1X14.15Y5.132
G1X14.087Y5.115
G1X13.998
G1X11.968Y5.16
G1X11.518
G1X11.099Y5.129
G1X10.873Y5.114
G1X10.691
G1X10.619
G1X10.567Y5.136
G1X10.536Y5.17
G1X10.526Y5.217
; Layer C00 Pass 2 of 3
G1X10.539Y5.264
G1X10.578Y5.29
G1X10.617
G1X10.682Y5.304
G1X10.774
G1X10.893Y5.315
G1X11.155Y5.346
G1X11.39Y5.42
G1X11.597Y5.539
G1X11.776Y5.703
G1X11.861Y5.817
G1X11.949Y5.971
G1X12.041Y6.164
G1X12.137Y6.397
G1X12.236Y6.669
G1X12.339Y6.981
G1X12.446Y7.333
G1X12.557Y7.724
G1X12.662Y8.123
G1X12.753Y8.497
G1X12.831Y8.847
G1X12.894Y9.171
G1X12.943Y9.469
G1X12.978Y9.743
G1X12.999Y9.991
G1Y10.214
G1Y10.536
G1X12.948Y10.813
G1X12.875Y11.045
G1X12.774Y11.232
G1X12.654Y11.377
G1X12.523Y11.48
G1X12.38Y11.542
G1X12.226Y11.563
G1X12.071Y11.551
G1X11.916Y11.513
G1X11.761Y11.45
G1X11.606Y11.362
G1X11.332Y11.15
G1X11.13Y10.907
G1X11.051Y10.764
G1X10.973Y10.593
G1X10.896Y10.394
G1X10.82Y10.168
G1X10.717Y9.842
G1X10.682Y9.788
G1X10.629Y9.77
G1X10.563Y9.793
G1X10.541Y9.863
G1X10.558Y10.035
G1X10.609Y10.24
G1X10.692Y10.479
G1X10.81Y10.752
G1X10.957Y11.025
G1X11.128Y11.266
G1X11.324Y11.475
G1X11.544Y11.651
G1X11.778Y11.791
G1X12.01Y11.891
G1X12.241Y11.951
G1X12.469Y11.971
G1X12.717Y11.941
G1X12.949Y11.849
G1X13.166Y11.695
G1X13.368Y11.48
G1X13.54Y11.213
G1X13.663Y10.895
G1X13.736Y10.528
G1X13.761Y10.111
G1X13.738Y9.439
G1X13.668Y8.798
G1X14.247Y9.868
G1X14.602Y10.443
G1X15.017Y10.979
G1X15.241Y11.222
G1X15.47Y11.434
G1X15.703Y11.615
G1X15.942Y11.765
G1X16.182Y11.882
G1X16.418Y11.966
G1X16.65Y12.017
G1X16.877Y12.033
G1X17.027Y12.02
G1X17.162Y11.978
G1X17.283Y11.908
G1X17.388Y11.811
G1X17.477Y11.698
G1X17.54Y11.583
G1X17.577Y11.463
G1X17.59Y11.341
G1X17.555Y11.125
G1X17.45Y10.922
G1X17.375Y10.839
G1X17.284Y10.779
G1X17.176Y10.743
G1X17.053Y10.731
G1X16.891Y10.754
G1X16.768Y10.824
G1X16.712Y10.892
G1X16.643Y10.997
G1X16.56Y11.14
G1X16.463Y11.32
G1X16.402Y11.417
G1X16.333Y11.487
G1X16.255Y11.529
G1X16.169Y11.542
G1X16.071Y11.53
G1X15.964Y11.493
G1X15.848Y11.432
G1X15.723Y11.346
G1X15.589Y11.236
G1X15.445Y11.101
G1X15.292Y10.941
G1X15.13Y10.757
G1X14.963Y10.547
G1X14.794Y10.311
G1X14.623Y10.049
G1X14.451Y9.76
G1X14.277Y9.444
G1X14.101Y9.102
G1X13.924Y8.734
G1X13.745Y8.339
G1X13.577Y7.944
G1X13.431Y7.577
G1X13.308Y7.237
G1X13.207Y6.925
G1X13.128Y6.64
G1X13.072Y6.383
G1X13.038Y6.153
G1X13.027Y5.951
G1X13.04Y5.803
G1X13.077Y5.673
G1X13.14Y5.563
G1X13.229Y5.471
G1X13.337Y5.398
G1X13.461Y5.345
G1X13.601Y5.313
G1X13.756Y5.3
G1X13.908
G1X14.024
G1X14.104Y5.288
G1X14.148
G1X14.187Y5.25
G1X14.2Y5.202
G1X14.187Y5.161
G1X14.15Y5.132
G1X14.087Y5.115
G1X13.998
G1X11.968Y5.16
G1X11.518
G1X11.099Y5.129
G1X10.873Y5.114
G1X10.691
G1X10.619
G1X10.567Y5.136
G1X10.536Y5.17
G1X10.526Y5.217
; Layer C00 Pass 3 of 3
G1X10.539Y5.264
G1X10.578Y5.29
G1X10.617
G1X10.682Y5.304
G1X10.774
G1X10.893Y5.315
G1X11.155Y5.346
G1X11.39Y5.42
G1X11.597Y5.539
G1X11.776Y5.703
G1X11.861Y5.817
G1X11.949Y5.971
G1X12.041Y6.164
G1X12.137Y6.397
G1X12.236Y6.669
G1X12.339Y6.981
G1X12.446Y7.333
G1X12.557Y7.724
G1X12.662Y8.123
G1X12.753Y8.497
G1X12.831Y8.847
G1X12.894Y9.171
G1X12.943Y9.469
G1X12.978Y9.743
G1X12.999Y9.991
G1Y10.214
G1Y10.536
G1X12.948Y10.813
G1X12.875Y11.045
G1X12.774Y11.232
G1X12.654Y11.377
G1X12.523Y11.48
G1X12.38Y11.542
G1X12.226Y11.563
G1X12.071Y11.551
G1X11.916Y11.513
G1X11.761Y11.45
G1X11.606Y11.362
G1X11.332Y11.15
G1X11.13Y10.907
G1X11.051Y10.764
G1X10.973Y10.593
G1X10.896Y10.394
G1X10.82Y10.168
G1X10.717Y9.842
G1X10.682Y9.788
G1X10.629Y9.77
G1X10.563Y9.793
G1X10.541Y9.863
G1X10.558Y10.035
G1X10.609Y10.24
G1X10.692Y10.479
G1X10.81Y10.752
G1X10.957Y11.025
G1X11.128Y11.266
G1X11.324Y11.475
G1X11.544Y11.651
G1X11.778Y11.791
G1X12.01Y11.891
G1X12.241Y11.951
G1X12.469Y11.971
G1X12.717Y11.941
G1X12.949Y11.849
G1X13.166Y11.695
G1X13.368Y11.48
G1X13.54Y11.213
G1X13.663Y10.895
G1X13.736Y10.528
G1X13.761Y10.111
G1X13.738Y9.439
G1X13.668Y8.798
G1X14.247Y9.868
G1X14.602Y10.443
G1X15.017Y10.979
G1X15.241Y11.222
G1X15.47Y11.434
G1X15.703Y11.615
G1X15.942Y11.765
G1X16.182Y11.882
G1X16.418Y11.966
G1X16.65Y12.017
G1X16.877Y12.033
G1X17.027Y12.02
G1X17.162Y11.978
G1X17.283Y11.908
G1X17.388Y11.811
G1X17.477Y11.698
G1X17.54Y11.583
G1X17.577Y11.463
G1X17.59Y11.341
G1X17.555Y11.125
G1X17.45Y10.922
G1X17.375Y10.839
G1X17.284Y10.779
G1X17.176Y10.743
G1X17.053Y10.731
G1X16.891Y10.754
G1X16.768Y10.824
G1X16.712Y10.892
G1X16.643Y10.997
G1X16.56Y11.14
G1X16.463Y11.32
G1X16.402Y11.417
G1X16.333Y11.487
G1X16.255Y11.529
G1X16.169Y11.542
G1X16.071Y11.53
G1X15.964Y11.493
G1X15.848Y11.432
G1X15.723Y11.346
G1X15.589Y11.236
G1X15.445Y11.101
G1X15.292Y10.941
G1X15.13Y10.757
G1X14.963Y10.547
G1X14.794Y10.311
G1X14.623Y10.049
G1X14.451Y9.76
G1X14.277Y9.444
G1X14.101Y9.102
G1X13.924Y8.734
G1X13.745Y8.339
G1X13.577Y7.944
G1X13.431Y7.577
G1X13.308Y7.237
G1X13.207Y6.925
G1X13.128Y6.64
G1X13.072Y6.383
G1X13.038Y6.153
G1X13.027Y5.951
G1X13.04Y5.803
G1X13.077Y5.673
G1X13.14Y5.563
G1X13.229Y5.471
G1X13.337Y5.398
G1X13.461Y5.345
G1X13.601Y5.313
G1X13.756Y5.3
G1X13.908
G1X14.024
G1X14.104Y5.288
G1X14.148
G1X14.187Y5.25
G1X14.2Y5.202
G1X14.187Y5.161
G1X14.15Y5.132
G1X14.087Y5.115
G1X13.998
G1X11.968Y5.16
G1X11.518
G1X11.099Y5.129
G1X10.873Y5.114
G1X10.691
G1X10.619
G1X10.567Y5.136
G1X10.536Y5.17
G1X10.526Y5.217
G0X18.973Y5.702
; Layer C00 Pass 1 of 3
G1X19.012Y5.602
G1X19.079Y5.516
G1X19.171Y5.445
G1X19.309Y5.388
G1X19.51Y5.348
G1X19.774Y5.324
G1X20.101
G1X20.577Y5.347
G1X20.997Y5.441
G1X21.36Y5.597
G1X21.667Y5.817
G1X21.911Y6.085
G1X22.086Y6.383
G1X22.19Y6.71
G1X22.225Y7.067
G1X22.196Y7.377
G1X22.107Y7.66
G1X21.958Y7.917
G1X21.75Y8.147
G1X21.483Y8.337
G1X21.153Y8.473
G1X20.76Y8.554
G1X20.303Y8.581
G1X20.164
G1X20.001
G1X19.813Y8.558
G1X19.6Y8.54
G1X19.588Y8.489
G1X19.556Y8.372
G1X19.323Y7.543
G1X19.227Y7.184
G1X19.145Y6.862
G1X19.078Y6.578
G1X19.026Y6.331
G1X18.989Y6.122
G1X18.967Y5.951
G1Y5.817
G1Y5.702
; Layer C00 Pass 2 of 3
G1X19.012Y5.602
G1X19.079Y5.516
G1X19.171Y5.445
G1X19.309Y5.388
G1X19.51Y5.348
G1X19.774Y5.324
G1X20.101
G1X20.577Y5.347
G1X20.997Y5.441
G1X21.36Y5.597
G1X21.667Y5.817
G1X21.911Y6.085
G1X22.086Y6.383
G1X22.19Y6.71
G1X22.225Y7.067
G1X22.196Y7.377
G1X22.107Y7.66
G1X21.958Y7.917
G1X21.75Y8.147
G1X21.483Y8.337
G1X21.153Y8.473
G1X20.76Y8.554
G1X20.303Y8.581
G1X20.164
G1X20.001
G1X19.813Y8.558
G1X19.6Y8.54
G1X19.588Y8.489
G1X19.556Y8.372
G1X19.323Y7.543
G1X19.227Y7.184
G1X19.145Y6.862
G1X19.078Y6.578
G1X19.026Y6.331
G1X18.989Y6.122
G1X18.967Y5.951
G1Y5.817
G1Y5.702
; Layer C00 Pass 3 of 3
G1X19.012Y5.602
G1X19.079Y5.516
G1X19.171Y5.445
G1X19.309Y5.388
G1X19.51Y5.348
G1X19.774Y5.324
G1X20.101
G1X20.577Y5.347
G1X20.997Y5.441
G1X21.36Y5.597
G1X21.667Y5.817
G1X21.911Y6.085
G1X22.086Y6.383
G1X22.19Y6.71
G1X22.225Y7.067
G1X22.196Y7.377
G1X22.107Y7.66
G1X21.958Y7.917
G1X21.75Y8.147
G1X21.483Y8.337
G1X21.153Y8.473
G1X20.76Y8.554
G1X20.303Y8.581
G1X20.164
G1X20.001
G1X19.813Y8.558
G1X19.6Y8.54
G1X19.588Y8.489
G1X19.556Y8.372
G1X19.323Y7.543
G1X19.227Y7.184
G1X19.145Y6.862
G1X19.078Y6.578
G1X19.026Y6.331
G1X18.989Y6.122
G1X18.967Y5.951
G1Y5.817
G1Y5.702
G0X23.409Y5.274
; Layer C00 Pass 1 of 3
G1X23.424Y5.309
G1X23.471Y5.336
G1X23.548Y5.356
G1X23.657Y5.367
G1X23.951Y5.406
G1X24.203Y5.476
G1X24.414Y5.576
G1X24.582Y5.708
G1X24.658Y5.801
G1X24.738Y5.931
G1X24.824Y6.1
G1X24.914Y6.306
G1X25.009Y6.551
G1X25.108Y6.833
G1X25.212Y7.153
G1X25.321Y7.512
G1X25.53Y8.243
G1X25.715Y8.921
G1X25.874Y9.547
G1X26.008Y10.121
G1X26.058Y10.347
G1X26.101Y10.527
G1X26.136Y10.662
G1X26.163Y10.752
G1X25.967Y11.004
G1X25.801Y11.204
G1X25.667Y11.351
G1X25.564Y11.444
G1X25.459Y11.51
G1X25.32Y11.567
G1X25.146Y11.616
G1X24.789Y11.684
G1X24.683Y11.716
G1X24.619Y11.751
G1X24.597Y11.791
G1X24.615Y11.833
G1X24.668Y11.864
G1X24.757Y11.883
G1X24.882
G1X24.963
G1X25.093
G1X25.584Y11.847
G1X25.712
G1X26.106Y11.832
G1X26.477Y11.816
G1X26.794Y11.791
G1X27.286Y10.886
G1X27.739Y10.062
G1X28.154Y9.317
G1X28.53Y8.652
G1X28.867Y8.068
G1X29.166Y7.563
G1X29.425Y7.138
G1X29.646Y6.793
G1X29.932Y7.616
G1X30.18Y8.349
G1X30.389Y8.99
G1X30.561Y9.541
G1X30.694Y10.002
G1X30.789Y10.372
G1X30.847Y10.651
G1X30.866Y10.84
G1X30.833Y11.067
G1X30.736Y11.274
G1X30.607Y11.438
G1X30.468Y11.537
G1X30.3Y11.598
G1X30.085Y11.635
G1X29.972Y11.652
G1X29.892Y11.677
G1X29.843Y11.709
G1X29.827Y11.749
G1Y11.783
G1X29.858Y11.811
G1X29.89Y11.825
G1X29.955
G1X30.053Y11.84
G1X31.078Y11.863
G1X31.689Y11.875
G1X32.323
G1X32.386
G1X32.431Y11.85
G1X32.459Y11.814
G1Y11.765
G1X32.443Y11.708
G1X32.369Y11.682
G1X32.157Y11.647
G1X31.97Y11.594
G1X31.808Y11.523
G1X31.672Y11.434
G1X31.552Y11.323
G1X31.441Y11.187
G1X31.338Y11.026
G1X31.243Y10.84
G1X31.192Y10.715
G1X31.128Y10.542
G1X31.051Y10.318
G1X30.96Y10.045
G1X30.856Y9.723
G1X30.738Y9.35
G1X30.607Y8.929
G1X30.318Y7.981
G1X30.069Y7.149
G1X29.872Y6.478
G1X29.729Y5.966
G1X29.618Y5.549
G1X29.571Y5.38
G1X29.536Y5.264
G1X29.512Y5.202
G1X29.478Y5.151
G1X29.439Y5.135
G1X29.37Y5.175
G1X29.315Y5.295
G1X29.264Y5.421
G1X29.178Y5.592
G1X29.058Y5.808
G1X28.902Y6.07
G1X27.424Y8.654
G1X26.918Y9.527
G1X26.672Y9.941
G1X26.5Y10.222
G1X26.442Y10.313
G1X26.202Y9.623
G1X25.986Y8.969
G1X25.796Y8.351
G1X25.631Y7.77
G1X25.352Y6.752
G1X25.298Y6.545
G1X25.259Y6.367
G1X25.236Y6.219
G1Y6.101
G1Y5.967
G1X25.291Y5.844
G1X25.37Y5.732
G1X25.481Y5.631
G1X25.619Y5.543
G1X25.773Y5.473
G1X25.944Y5.419
G1X26.225Y5.364
G1X26.291Y5.34
G1X26.331Y5.31
G1X26.344Y5.274
G1X26.318Y5.204
G1X26.241Y5.181
G1X25.714
G1X24.98
G1X23.771
G1X23.538
G1X23.481
G1X23.441Y5.204
G1X23.417Y5.233
G1Y5.274
; Layer C00 Pass 2 of 3
G1Y5.309
G1X23.471Y5.336
G1X23.548Y5.356
G1X23.657Y5.367
G1X23.951Y5.406
G1X24.203Y5.476
G1X24.414Y5.576
G1X24.582Y5.708
G1X24.658Y5.801
G1X24.738Y5.931
G1X24.824Y6.1
G1X24.914Y6.306
G1X25.009Y6.551
G1X25.108Y6.833
G1X25.212Y7.153
G1X25.321Y7.512
G1X25.53Y8.243
G1X25.715Y8.921
G1X25.874Y9.547
G1X26.008Y10.121
G1X26.058Y10.347
G1X26.101Y10.527
G1X26.136Y10.662
G1X26.163Y10.752
G1X25.967Y11.004
G1X25.801Y11.204
G1X25.667Y11.351
G1X25.564Y11.444
G1X25.459Y11.51
G1X25.32Y11.567
G1X25.146Y11.616
G1X24.789Y11.684
G1X24.683Y11.716
G1X24.619Y11.751
G1X24.597Y11.791
G1X24.615Y11.833
G1X24.668Y11.864
G1X24.757Y11.883
G1X24.882
G1X24.963
G1X25.093
G1X25.584Y11.847
G1X25.712
G1X26.106Y11.832
G1X26.477Y11.816
G1X26.794Y11.791
G1X27.286Y10.886
G1X27.739Y10.062
G1X28.154Y9.317
G1X28.53Y8.652
G1X28.867Y8.068
G1X29.166Y7.563
G1X29.425Y7.138
G1X29.646Y6.793
G1X29.932Y7.616
G1X30.18Y8.349
G1X30.389Y8.99
G1X30.561Y9.541
G1X30.694Y10.002
G1X30.789Y10.372
G1X30.847Y10.651
G1X30.866Y10.84
G1X30.833Y11.067
G1X30.736Y11.274
G1X30.607Y11.438
G1X30.468Y11.537
G1X30.3Y11.598
G1X30.085Y11.635
G1X29.972Y11.652
G1X29.892Y11.677
G1X29.843Y11.709
G1X29.827Y11.749
G1Y11.783
G1X29.858Y11.811
G1X29.89Y11.825
G1X29.955
G1X30.053Y11.84
G1X31.078Y11.863
G1X31.689Y11.875
G1X32.323
G1X32.386
G1X32.431Y11.85
G1X32.459Y11.814
G1Y11.765
G1X32.443Y11.708
G1X32.369Y11.682
G1X32.157Y11.647
G1X31.97Y11.594
G1X31.808Y11.523
G1X31.672Y11.434
G1X31.552Y11.323
G1X31.441Y11.187
G1X31.338Y11.026
G1X31.243Y10.84
G1X31.192Y10.715
G1X31.128Y10.542
G1X31.051Y10.318
G1X30.96Y10.045
G1X30.856Y9.723
G1X30.738Y9.35
G1X30.607Y8.929
G1X30.318Y7.981
G1X30.069Y7.149
G1X29.872Y6.478
G1X29.729Y5.966
G1X29.618Y5.549
G1X29.571Y5.38
G1X29.536Y5.264
G1X29.512Y5.202
G1X29.478Y5.151
G1X29.439Y5.135
G1X29.37Y5.175
G1X29.315Y5.295
G1X29.264Y5.421
G1X29.178Y5.592
G1X29.058Y5.808
G1X28.902Y6.07
G1X27.424Y8.654
G1X26.918Y9.527
G1X26.672Y9.941
G1X26.5Y10.222
G1X26.442Y10.313
G1X26.202Y9.623
G1X25.986Y8.969
G1X25.796Y8.351
G1X25.631Y7.77
G1X25.352Y6.752
G1X25.298Y6.545
G1X25.259Y6.367
G1X25.236Y6.219
G1Y6.101
G1Y5.967
G1X25.291Y5.844
G1X25.37Y5.732
G1X25.481Y5.631
G1X25.619Y5.543
G1X25.773Y5.473
G1X25.944Y5.419
G1X26.225Y5.364
G1X26.291Y5.34
G1X26.331Y5.31
G1X26.344Y5.274
G1X26.318Y5.204
G1X26.241Y5.181
G1X25.714
G1X24.98
G1X23.771
G1X23.538
G1X23.481
G1X23.441Y5.204
G1X23.417Y5.233
G1Y5.274
; Layer C00 Pass 3 of 3
G1Y5.309
G1X23.471Y5.336
G1X23.548Y5.356
G1X23.657Y5.367
G1X23.951Y5.406
G1X24.203Y5.476
G1X24.414Y5.576
G1X24.582Y5.708
G1X24.658Y5.801
G1X24.738Y5.931
G1X24.824Y6.1
G1X24.914Y6.306
G1X25.009Y6.551
G1X25.108Y6.833
G1X25.212Y7.153
G1X25.321Y7.512
G1X25.53Y8.243
G1X25.715Y8.921
G1X25.874Y9.547
G1X26.008Y10.121
G1X26.058Y10.347
G1X26.101Y10.527
G1X26.136Y10.662
G1X26.163Y10.752
G1X25.967Y11.004
G1X25.801Y11.204
G1X25.667Y11.351
G1X25.564Y11.444
G1X25.459Y11.51
G1X25.32Y11.567
G1X25.146Y11.616
G1X24.789Y11.684
G1X24.683Y11.716
G1X24.619Y11.751
G1X24.597Y11.791
G1X24.615Y11.833
G1X24.668Y11.864
G1X24.757Y11.883
G1X24.882
G1X24.963
G1X25.093
G1X25.584Y11.847
G1X25.712
G1X26.106Y11.832
G1X26.477Y11.816
G1X26.794Y11.791
G1X27.286Y10.886
G1X27.739Y10.062
G1X28.154Y9.317
G1X28.53Y8.652
G1X28.867Y8.068
G1X29.166Y7.563
G1X29.425Y7.138
G1X29.646Y6.793
G1X29.932Y7.616
G1X30.18Y8.349
G1X30.389Y8.99
G1X30.561Y9.541
G1X30.694Y10.002
G1X30.789Y10.372
G1X30.847Y10.651
G1X30.866Y10.84
G1X30.833Y11.067
G1X30.736Y11.274
G1X30.607Y11.438
G1X30.468Y11.537
G1X30.3Y11.598
G1X30.085Y11.635
G1X29.972Y11.652
G1X29.892Y11.677
G1X29.843Y11.709
G1X29.827Y11.749
G1Y11.783
G1X29.858Y11.811
G1X29.89Y11.825
G1X29.955
G1X30.053Y11.84
G1X31.078Y11.863
G1X31.689Y11.875
G1X32.323
G1X32.386
G1X32.431Y11.85
G1X32.459Y11.814
G1Y11.765
G1X32.443Y11.708
G1X32.369Y11.682
G1X32.157Y11.647
G1X31.97Y11.594
G1X31.808Y11.523
G1X31.672Y11.434
G1X31.552Y11.323
G1X31.441Y11.187
G1X31.338Y11.026
G1X31.243Y10.84
G1X31.192Y10.715
G1X31.128Y10.542
G1X31.051Y10.318
G1X30.96Y10.045
G1X30.856Y9.723
G1X30.738Y9.35
G1X30.607Y8.929
G1X30.318Y7.981
G1X30.069Y7.149
G1X29.872Y6.478
G1X29.729Y5.966
G1X29.618Y5.549
G1X29.571Y5.38
G1X29.536Y5.264
G1X29.512Y5.202
G1X29.478Y5.151
G1X29.439Y5.135
G1X29.37Y5.175
G1X29.315Y5.295
G1X29.264Y5.421
G1X29.178Y5.592
G1X29.058Y5.808
G1X28.902Y6.07
G1X27.424Y8.654
G1X26.918Y9.527
G1X26.672Y9.941
G1X26.5Y10.222
G1X26.442Y10.313
G1X26.202Y9.623
G1X25.986Y8.969
G1X25.796Y8.351
G1X25.631Y7.77
G1X25.352Y6.752
G1X25.298Y6.545
G1X25.259Y6.367
G1X25.236Y6.219
G1Y6.101
G1Y5.967
G1X25.291Y5.844
G1X25.37Y5.732
G1X25.481Y5.631
G1X25.619Y5.543
G1X25.773Y5.473
G1X25.944Y5.419
G1X26.225Y5.364
G1X26.291Y5.34
G1X26.331Y5.31
G1X26.344Y5.274
G1X26.318Y5.204
G1X26.241Y5.181
G1X25.714
G1X24.98
G1X23.771
G1X23.538
G1X23.481
G1X23.441Y5.204
G1X23.417Y5.233
G1Y5.274
G0X21.386Y8.917
; Layer C00 Pass 1 of 3
G1X21.742Y9.066
G1X22.06Y9.274
G1X22.325Y9.528
G1X22.513Y9.816
G1X22.627Y10.138
G1X22.665Y10.493
G1X22.645Y10.762
G1X22.587Y10.995
G1X22.49Y11.191
G1X22.355Y11.351
G1X22.183Y11.476
G1X21.972Y11.564
G1X21.723Y11.618
G1X21.435Y11.635
G1X21.133
G1X20.888Y11.601
G1X20.701Y11.557
G1X20.572Y11.496
G1X20.471Y11.394
G1X20.366Y11.222
G1X20.257Y10.981
G1X20.143Y10.669
G1X20.029Y10.294
G1X19.914Y9.858
G1X19.799Y9.359
G1X19.683Y8.798
G1X20.561
G1X20.992Y8.828
G1X21.386Y8.917
; Layer C00 Pass 2 of 3
G1X21.742Y9.066
G1X22.06Y9.274
G1X22.325Y9.528
G1X22.513Y9.816
G1X22.627Y10.138
G1X22.665Y10.493
G1X22.645Y10.762
G1X22.587Y10.995
G1X22.49Y11.191
G1X22.355Y11.351
G1X22.183Y11.476
G1X21.972Y11.564
G1X21.723Y11.618
G1X21.435Y11.635
G1X21.133
G1X20.888Y11.601
G1X20.701Y11.557
G1X20.572Y11.496
G1X20.471Y11.394
G1X20.366Y11.222
G1X20.257Y10.981
G1X20.143Y10.669
G1X20.029Y10.294
G1X19.914Y9.858
G1X19.799Y9.359
G1X19.683Y8.798
G1X20.561
G1X20.992Y8.828
G1X21.386Y8.917
; Layer C00 Pass 3 of 3
G1X21.742Y9.066
G1X22.06Y9.274
G1X22.325Y9.528
G1X22.513Y9.816
G1X22.627Y10.138
G1X22.665Y10.493
G1X22.645Y10.762
G1X22.587Y10.995
G1X22.49Y11.191
G1X22.355Y11.351
G1X22.183Y11.476
G1X21.972Y11.564
G1X21.723Y11.618
G1X21.435Y11.635
G1X21.133
G1X20.888Y11.601
G1X20.701Y11.557
G1X20.572Y11.496
G1X20.471Y11.394
G1X20.366Y11.222
G1X20.257Y10.981
G1X20.143Y10.669
G1X20.029Y10.294
G1X19.914Y9.858
G1X19.799Y9.359
G1X19.683Y8.798
G1X20.561
G1X20.992Y8.828
G1X21.386Y8.917
G0X21.512Y8.7
; Layer C00 Pass 1 of 3
G1X21.917Y8.574
G1X22.267Y8.424
G1X22.563Y8.249
G1X22.804Y8.049
G1X22.994Y7.825
G1X23.13Y7.576
G1X23.211Y7.303
G1X23.238Y7.005
G1X23.219Y6.763
G1X23.159Y6.521
G1X23.061Y6.28
G1X22.923Y6.039
G1X22.752Y5.817
G1X22.548Y5.626
G1X22.313Y5.465
G1X22.045Y5.336
G1X21.722Y5.237
G1X21.317Y5.166
G1X20.83Y5.123
G1X20.262Y5.109
G1X20.017
G1X19.741
G1X19.435Y5.129
G1X19.099Y5.145
G1X18.768Y5.157
G1X18.51
G1X16.727Y5.098
G1X16.659
G1X16.611Y5.124
G1X16.582Y5.157
G1X16.572Y5.202
G1X16.607Y5.259
G1X16.712Y5.284
G1X16.997Y5.313
G1X17.233Y5.357
G1X17.421Y5.416
G1X17.559Y5.491
G1X17.672Y5.594
G1X17.777Y5.731
G1X17.876Y5.904
G1X17.967Y6.111
G1X18.018Y6.249
G1X18.081Y6.438
G1X18.156Y6.677
G1X18.242Y6.968
G1X18.341Y7.309
G1X18.451Y7.701
G1X18.573Y8.144
G1X18.706Y8.638
G1X18.838Y9.135
G1X18.953Y9.583
G1X19.049Y9.984
G1X19.129Y10.336
G1X19.19Y10.64
G1X19.234Y10.896
G1X19.261Y11.104
G1Y11.263
G1Y11.362
G1X19.207Y11.451
G1X19.13Y11.53
G1X19.021Y11.599
G1X18.76Y11.707
G1X18.397Y11.774
G1X18.342Y11.798
G1X18.309Y11.831
G1X18.298Y11.873
G1X18.326Y11.935
G1X18.412Y11.956
G1X18.441
G1X19.445Y11.869
G1X20.381Y11.842
G1X21.657Y11.858
G1X22.054Y11.833
G1X22.413Y11.76
G1X22.733Y11.637
G1X23.016Y11.465
G1X23.244Y11.251
G1X23.407Y11.004
G1X23.505Y10.722
G1X23.538Y10.406
G1X23.506Y10.083
G1X23.411Y9.791
G1X23.253Y9.53
G1X23.032Y9.3
G1X22.747Y9.103
G1X22.399Y8.938
G1X21.987Y8.804
G1X21.512Y8.7
; Layer C00 Pass 2 of 3
G1X21.917Y8.574
G1X22.267Y8.424
G1X22.563Y8.249
G1X22.804Y8.049
G1X22.994Y7.825
G1X23.13Y7.576
G1X23.211Y7.303
G1X23.238Y7.005
G1X23.219Y6.763
G1X23.159Y6.521
G1X23.061Y6.28
G1X22.923Y6.039
G1X22.752Y5.817
G1X22.548Y5.626
G1X22.313Y5.465
G1X22.045Y5.336
G1X21.722Y5.237
G1X21.317Y5.166
G1X20.83Y5.123
G1X20.262Y5.109
G1X20.017
G1X19.741
G1X19.435Y5.129
G1X19.099Y5.145
G1X18.768Y5.157
G1X18.51
G1X16.727Y5.098
G1X16.659
G1X16.611Y5.124
G1X16.582Y5.157
G1X16.572Y5.202
G1X16.607Y5.259
G1X16.712Y5.284
G1X16.997Y5.313
G1X17.233Y5.357
G1X17.421Y5.416
G1X17.559Y5.491
G1X17.672Y5.594
G1X17.777Y5.731
G1X17.876Y5.904
G1X17.967Y6.111
G1X18.018Y6.249
G1X18.081Y6.438
G1X18.156Y6.677
G1X18.242Y6.968
G1X18.341Y7.309
G1X18.451Y7.701
G1X18.573Y8.144
G1X18.706Y8.638
G1X18.838Y9.135
G1X18.953Y9.583
G1X19.049Y9.984
G1X19.129Y10.336
G1X19.19Y10.64
G1X19.234Y10.896
G1X19.261Y11.104
G1Y11.263
G1Y11.362
G1X19.207Y11.451
G1X19.13Y11.53
G1X19.021Y11.599
G1X18.76Y11.707
G1X18.397Y11.774
G1X18.342Y11.798
G1X18.309Y11.831
G1X18.298Y11.873
G1X18.326Y11.935
G1X18.412Y11.956
G1X18.441
G1X19.445Y11.869
G1X20.381Y11.842
G1X21.657Y11.858
G1X22.054Y11.833
G1X22.413Y11.76
G1X22.733Y11.637
G1X23.016Y11.465
G1X23.244Y11.251
G1X23.407Y11.004
G1X23.505Y10.722
G1X23.538Y10.406
G1X23.506Y10.083
G1X23.411Y9.791
G1X23.253Y9.53
G1X23.032Y9.3
G1X22.747Y9.103
G1X22.399Y8.938
G1X21.987Y8.804
G1X21.512Y8.7
; Layer C00 Pass 3 of 3
G1X21.917Y8.574
G1X22.267Y8.424
G1X22.563Y8.249
G1X22.804Y8.049
G1X22.994Y7.825
G1X23.13Y7.576
G1X23.211Y7.303
G1X23.238Y7.005
G1X23.219Y6.763
G1X23.159Y6.521
G1X23.061Y6.28
G1X22.923Y6.039
G1X22.752Y5.817
G1X22.548Y5.626
G1X22.313Y5.465
G1X22.045Y5.336
G1X21.722Y5.237
G1X21.317Y5.166
G1X20.83Y5.123
G1X20.262Y5.109
G1X20.017
G1X19.741
G1X19.435Y5.129
G1X19.099Y5.145
G1X18.768Y5.157
G1X18.51
G1X16.727Y5.098
G1X16.659
G1X16.611Y5.124
G1X16.582Y5.157
G1X16.572Y5.202
G1X16.607Y5.259
G1X16.712Y5.284
G1X16.997Y5.313
G1X17.233Y5.357
G1X17.421Y5.416
G1X17.559Y5.491
G1X17.672Y5.594
G1X17.777Y5.731
G1X17.876Y5.904
G1X17.967Y6.111
G1X18.018Y6.249
G1X18.081Y6.438
G1X18.156Y6.677
G1X18.242Y6.968
G1X18.341Y7.309
G1X18.451Y7.701
G1X18.573Y8.144
G1X18.706Y8.638
G1X18.838Y9.135
G1X18.953Y9.583
G1X19.049Y9.984
G1X19.129Y10.336
G1X19.19Y10.64
G1X19.234Y10.896
G1X19.261Y11.104
G1Y11.263
G1Y11.362
G1X19.207Y11.451
G1X19.13Y11.53
G1X19.021Y11.599
G1X18.76Y11.707
G1X18.397Y11.774
G1X18.342Y11.798
G1X18.309Y11.831
G1X18.298Y11.873
G1X18.326Y11.935
G1X18.412Y11.956
G1X18.441
G1X19.445Y11.869
G1X20.381Y11.842
G1X21.657Y11.858
G1X22.054Y11.833
G1X22.413Y11.76
G1X22.733Y11.637
G1X23.016Y11.465
G1X23.244Y11.251
G1X23.407Y11.004
G1X23.505Y10.722
G1X23.538Y10.406
G1X23.506Y10.083
G1X23.411Y9.791
G1X23.253Y9.53
G1X23.032Y9.3
G1X22.747Y9.103
G1X22.399Y8.938
G1X21.987Y8.804
G1X21.512Y8.7
G0X32.953Y7.336
; Layer C00 Pass 1 of 3
G1X33.21Y7.386
G1X33.439Y7.468
G1X33.639Y7.582
G1X33.811Y7.729
G1X33.951Y7.896
G1X34.052Y8.071
G1X34.112Y8.255
G1X34.132Y8.447
G1Y8.589
G1X34.099Y8.769
G1X34.059Y8.985
G1X34.002Y9.238
G1X33.921Y9.667
G1X33.894Y10.044
G1X33.929Y10.402
G1X34.033Y10.741
G1X34.208Y11.063
G1X34.452Y11.367
G1X34.75Y11.63
G1X35.08Y11.832
G1X35.442Y11.971
G1X35.837Y12.049
G1Y11.868
G1X35.563Y11.786
G1X35.326Y11.683
G1X35.125Y11.56
G1X34.961Y11.417
G1X34.833Y11.254
G1X34.742Y11.071
G1X34.687Y10.867
G1X34.669Y10.643
G1Y10.492
G1X34.7Y10.305
G1X34.739Y10.083
G1X34.793Y9.827
G1X34.874Y9.393
G1X34.902Y9.021
G1X34.877Y8.755
G1X34.802Y8.494
G1X34.678Y8.238
G1X34.504Y7.987
G1X34.286Y7.757
G1X34.026Y7.556
G1X33.723Y7.384
G1X33.377Y7.243
G1X33.712Y7.099
G1X34.01Y6.925
G1X34.271Y6.722
G1X34.493Y6.489
G1X34.672Y6.237
G1X34.8Y5.978
G1X34.876Y5.712
G1X34.902Y5.439
G1X34.874Y5.07
G1X34.793Y4.633
G1X34.739Y4.379
G1X34.7Y4.159
G1X34.677Y3.973
G1Y3.822
G1X34.687Y3.598
G1X34.742Y3.395
G1X34.833Y3.211
G1X34.961Y3.048
G1X35.125Y2.905
G1X35.326Y2.782
G1X35.563Y2.68
G1X35.837Y2.597
G1Y2.416
G1X35.44Y2.494
G1X35.077Y2.633
G1X34.748Y2.835
G1X34.452Y3.099
G1X34.208Y3.4
G1X34.033Y3.721
G1X33.929Y4.062
G1X33.894Y4.421
G1X33.921Y4.799
G1X34.002Y5.228
G1X34.059Y5.481
G1X34.099Y5.697
G1X34.124Y5.876
G1Y6.018
G1X34.112Y6.21
G1X34.052Y6.394
G1X33.951Y6.57
G1X33.811Y6.737
G1X33.637Y6.883
G1X33.437Y6.998
G1X33.209Y7.08
G1X32.953Y7.129
G1Y7.336
; Layer C00 Pass 2 of 3
G1X33.21Y7.386
G1X33.439Y7.468
G1X33.639Y7.582
G1X33.811Y7.729
G1X33.951Y7.896
G1X34.052Y8.071
G1X34.112Y8.255
G1X34.132Y8.447
G1Y8.589
G1X34.099Y8.769
G1X34.059Y8.985
G1X34.002Y9.238
G1X33.921Y9.667
G1X33.894Y10.044
G1X33.929Y10.402
G1X34.033Y10.741
G1X34.208Y11.063
G1X34.452Y11.367
G1X34.75Y11.63
G1X35.08Y11.832
G1X35.442Y11.971
G1X35.837Y12.049
G1Y11.868
G1X35.563Y11.786
G1X35.326Y11.683
G1X35.125Y11.56
G1X34.961Y11.417
G1X34.833Y11.254
G1X34.742Y11.071
G1X34.687Y10.867
G1X34.669Y10.643
G1Y10.492
G1X34.7Y10.305
G1X34.739Y10.083
G1X34.793Y9.827
G1X34.874Y9.393
G1X34.902Y9.021
G1X34.877Y8.755
G1X34.802Y8.494
G1X34.678Y8.238
G1X34.504Y7.987
G1X34.286Y7.757
G1X34.026Y7.556
G1X33.723Y7.384
G1X33.377Y7.243
G1X33.712Y7.099
G1X34.01Y6.925
G1X34.271Y6.722
G1X34.493Y6.489
G1X34.672Y6.237
G1X34.8Y5.978
G1X34.876Y5.712
G1X34.902Y5.439
G1X34.874Y5.07
G1X34.793Y4.633
G1X34.739Y4.379
G1X34.7Y4.159
G1X34.677Y3.973
G1Y3.822
G1X34.687Y3.598
G1X34.742Y3.395
G1X34.833Y3.211
G1X34.961Y3.048
G1X35.125Y2.905
G1X35.326Y2.782
G1X35.563Y2.68
G1X35.837Y2.597
G1Y2.416
G1X35.44Y2.494
G1X35.077Y2.633
G1X34.748Y2.835
G1X34.452Y3.099
G1X34.208Y3.4
G1X34.033Y3.721
G1X33.929Y4.062
G1X33.894Y4.421
G1X33.921Y4.799
G1X34.002Y5.228
G1X34.059Y5.481
G1X34.099Y5.697
G1X34.124Y5.876
G1Y6.018
G1X34.112Y6.21
G1X34.052Y6.394
G1X33.951Y6.57
G1X33.811Y6.737
G1X33.637Y6.883
G1X33.437Y6.998
G1X33.209Y7.08
G1X32.953Y7.129
G1Y7.336
; Layer C00 Pass 3 of 3
G1X33.21Y7.386
G1X33.439Y7.468
G1X33.639Y7.582
G1X33.811Y7.729
G1X33.951Y7.896
G1X34.052Y8.071
G1X34.112Y8.255
G1X34.132Y8.447
G1Y8.589
G1X34.099Y8.769
G1X34.059Y8.985
G1X34.002Y9.238
G1X33.921Y9.667
G1X33.894Y10.044
G1X33.929Y10.402
G1X34.033Y10.741
G1X34.208Y11.063
G1X34.452Y11.367
G1X34.75Y11.63
G1X35.08Y11.832
G1X35.442Y11.971
G1X35.837Y12.049
G1Y11.868
G1X35.563Y11.786
G1X35.326Y11.683
G1X35.125Y11.56
G1X34.961Y11.417
G1X34.833Y11.254
G1X34.742Y11.071
G1X34.687Y10.867
G1X34.669Y10.643
G1Y10.492
G1X34.7Y10.305
G1X34.739Y10.083
G1X34.793Y9.827
G1X34.874Y9.393
G1X34.902Y9.021
G1X34.877Y8.755
G1X34.802Y8.494
G1X34.678Y8.238
G1X34.504Y7.987
G1X34.286Y7.757
G1X34.026Y7.556
G1X33.723Y7.384
G1X33.377Y7.243
G1X33.712Y7.099
G1X34.01Y6.925
G1X34.271Y6.722
G1X34.493Y6.489
G1X34.672Y6.237
G1X34.8Y5.978
G1X34.876Y5.712
G1X34.902Y5.439
G1X34.874Y5.07
G1X34.793Y4.633
G1X34.739Y4.379
G1X34.7Y4.159
G1X34.677Y3.973
G1Y3.822
G1X34.687Y3.598
G1X34.742Y3.395
G1X34.833Y3.211
G1X34.961Y3.048
G1X35.125Y2.905
G1X35.326Y2.782
G1X35.563Y2.68
G1X35.837Y2.597
G1Y2.416
G1X35.44Y2.494
G1X35.077Y2.633
G1X34.748Y2.835
G1X34.452Y3.099
G1X34.208Y3.4
G1X34.033Y3.721
G1X33.929Y4.062
G1X33.894Y4.421
G1X33.921Y4.799
G1X34.002Y5.228
G1X34.059Y5.481
G1X34.099Y5.697
G1X34.124Y5.876
G1Y6.018
G1X34.112Y6.21
G1X34.052Y6.394
G1X33.951Y6.57
G1X33.811Y6.737
G1X33.637Y6.883
G1X33.437Y6.998
G1X33.209Y7.08
G1X32.953Y7.129
G1Y7.336
G0X37.595Y6.932
; Layer C00 Pass 1 of 3
G1X37.845Y7.747
G1X38.543Y9.985
G1X38.663Y10.378
G1X38.764Y10.72
G1X38.847Y11.012
G1X38.912Y11.253
G1X38.958Y11.445
G1X38.985Y11.586
G1Y11.677
G1X38.957Y11.802
G1X38.843Y11.895
G1X38.654Y11.955
G1X38.39Y11.982
G1X38.29
G1X38.219Y12.01
G1X38.177Y12.042
G1X38.162Y12.085
G1X38.177Y12.133
G1X38.219Y12.166
G1X38.29Y12.187
G1X38.39
G1X39.899Y12.245
G1X39.863Y12.122
G1X39.625Y11.334
G1X39Y9.315
G1X38.038Y6.127
G1X37.968Y5.849
G1X37.918Y5.637
G1X37.888Y5.49
G1Y5.408
G1Y5.346
G1X37.945Y5.326
G1X38.035Y5.348
G1X38.161Y5.415
G1X38.322Y5.526
G1X38.519Y5.682
G1X38.718Y5.856
G1X38.887Y6.022
G1X39.026Y6.179
G1X39.134Y6.328
G1X39.192Y6.412
G1X39.242Y6.472
G1X39.285Y6.508
G1X39.32Y6.52
G1X39.386Y6.498
G1X39.408Y6.432
G1X39.372Y6.317
G1X39.263Y6.15
G1X39.082Y5.93
G1X38.829Y5.657
G1X38.544Y5.394
G1X38.263Y5.207
G1X37.986Y5.095
G1X37.713Y5.057
G1X37.56Y5.086
G1X37.423Y5.171
G1X37.367Y5.237
G1X37.327Y5.317
G1X37.302Y5.41
G1Y5.517
G1X37.321Y5.889
G1X37.403Y6.282
G1X37.442Y6.422
G1X37.595Y6.932
; Layer C00 Pass 2 of 3
G1X37.845Y7.747
G1X38.543Y9.985
G1X38.663Y10.378
G1X38.764Y10.72
G1X38.847Y11.012
G1X38.912Y11.253
G1X38.958Y11.445
G1X38.985Y11.586
G1Y11.677
G1X38.957Y11.802
G1X38.843Y11.895
G1X38.654Y11.955
G1X38.39Y11.982
G1X38.29
G1X38.219Y12.01
G1X38.177Y12.042
G1X38.162Y12.085
G1X38.177Y12.133
G1X38.219Y12.166
G1X38.29Y12.187
G1X38.39
G1X39.899Y12.245
G1X39.863Y12.122
G1X39.625Y11.334
G1X39Y9.315
G1X38.038Y6.127
G1X37.968Y5.849
G1X37.918Y5.637
G1X37.888Y5.49
G1Y5.408
G1Y5.346
G1X37.945Y5.326
G1X38.035Y5.348
G1X38.161Y5.415
G1X38.322Y5.526
G1X38.519Y5.682
G1X38.718Y5.856
G1X38.887Y6.022
G1X39.026Y6.179
G1X39.134Y6.328
G1X39.192Y6.412
G1X39.242Y6.472
G1X39.285Y6.508
G1X39.32Y6.52
G1X39.386Y6.498
G1X39.408Y6.432
G1X39.372Y6.317
G1X39.263Y6.15
G1X39.082Y5.93
G1X38.829Y5.657
G1X38.544Y5.394
G1X38.263Y5.207
G1X37.986Y5.095
G1X37.713Y5.057
G1X37.56Y5.086
G1X37.423Y5.171
G1X37.367Y5.237
G1X37.327Y5.317
G1X37.302Y5.41
G1Y5.517
G1X37.321Y5.889
G1X37.403Y6.282
G1X37.442Y6.422
G1X37.595Y6.932
; Layer C00 Pass 3 of 3
G1X37.845Y7.747
G1X38.543Y9.985
G1X38.663Y10.378
G1X38.764Y10.72
G1X38.847Y11.012
G1X38.912Y11.253
G1X38.958Y11.445
G1X38.985Y11.586
G1Y11.677
G1X38.957Y11.802
G1X38.843Y11.895
G1X38.654Y11.955
G1X38.39Y11.982
G1X38.29
G1X38.219Y12.01
G1X38.177Y12.042
G1X38.162Y12.085
G1X38.177Y12.133
G1X38.219Y12.166
G1X38.29Y12.187
G1X38.39
G1X39.899Y12.245
G1X39.863Y12.122
G1X39.625Y11.334
G1X39Y9.315
G1X38.038Y6.127
G1X37.968Y5.849
G1X37.918Y5.637
G1X37.888Y5.49
G1Y5.408
G1Y5.346
G1X37.945Y5.326
G1X38.035Y5.348
G1X38.161Y5.415
G1X38.322Y5.526
G1X38.519Y5.682
G1X38.718Y5.856
G1X38.887Y6.022
G1X39.026Y6.179
G1X39.134Y6.328
G1X39.192Y6.412
G1X39.242Y6.472
G1X39.285Y6.508
G1X39.32Y6.52
G1X39.386Y6.498
G1X39.408Y6.432
G1X39.372Y6.317
G1X39.263Y6.15
G1X39.082Y5.93
G1X38.829Y5.657
G1X38.544Y5.394
G1X38.263Y5.207
G1X37.986Y5.095
G1X37.713Y5.057
G1X37.56Y5.086
G1X37.423Y5.171
G1X37.367Y5.237
G1X37.327Y5.317
G1X37.302Y5.41
G1Y5.517
G1X37.321Y5.889
G1X37.403Y6.282
G1X37.442Y6.422
G1X37.595Y6.932
G0X40.157Y7.538
; Layer C00 Pass 1 of 3
G1X40.708
G1X42.436
G1X42.901Y9.062
G1X43.086Y9.658
G1X43.232Y10.116
G1X43.029Y9.975
G1X42.774Y9.783
G1X42.468Y9.538
G1X42.109Y9.242
G1X41.699Y8.893
G1X41.237Y8.493
G1X40.723Y8.041
G1X40.157Y7.538
; Layer C00 Pass 2 of 3
G1X40.708
G1X42.436
G1X42.901Y9.062
G1X43.086Y9.658
G1X43.232Y10.116
G1X43.029Y9.975
G1X42.774Y9.783
G1X42.468Y9.538
G1X42.109Y9.242
G1X41.699Y8.893
G1X41.237Y8.493
G1X40.723Y8.041
G1X40.157Y7.538
; Layer C00 Pass 3 of 3
G1X40.708
G1X42.436
G1X42.901Y9.062
G1X43.086Y9.658
G1X43.232Y10.116
G1X43.029Y9.975
G1X42.774Y9.783
G1X42.468Y9.538
G1X42.109Y9.242
G1X41.699Y8.893
G1X41.237Y8.493
G1X40.723Y8.041
G1X40.157Y7.538
G0X39.973Y7.638
; Layer C00 Pass 1 of 3
G1X40.169Y7.809
G1X40.788Y8.364
G1X41.329Y8.846
G1X41.842Y9.289
G1X42.326Y9.694
G1X42.782Y10.059
G1X43.718Y10.783
G1X43.807Y10.806
G1X43.96
G1X44.024
G1X44.069Y10.792
G1X44.096Y10.764
G1Y10.726
G1Y10.655
G1X44.044Y10.49
G1X43.967Y10.232
G1X43.86Y9.88
G1X43.553Y8.896
G1X43.123Y7.538
G1X43.857
G1X43.988Y7.549
G1X44.108Y7.584
G1X44.216Y7.642
G1X44.312Y7.724
G1X44.459Y7.923
G1X44.539Y8.147
G1X44.578Y8.244
G1X44.643Y8.277
G1X44.724Y8.252
G1X44.751Y8.178
G1X44.732Y8.041
G1X44.674Y7.868
G1X44.219Y6.411
G1X44.163Y6.345
G1X44.11Y6.323
G1X44.044Y6.352
G1X44.022Y6.437
G1Y6.472
G1Y6.514
G1X44.06Y6.64
G1Y6.768
G1Y6.934
G1X44.002Y7.072
G1X43.927Y7.18
G1X43.826Y7.253
G1X43.697Y7.296
G1X43.526Y7.31
G1X43.061Y7.321
G1X42.751Y6.282
G1X42.682Y6.04
G1X42.658Y5.853
G1X42.689Y5.693
G1X42.782Y5.533
G1X42.859Y5.463
G1X42.961Y5.411
G1X43.087Y5.376
G1X43.339Y5.344
G1X43.411Y5.322
G1X43.455Y5.29
G1X43.47Y5.248
G1X43.457Y5.205
G1X43.419Y5.175
G1X43.356Y5.156
G1X43.268
G1X43.196
G1X43.092
G1X42.793Y5.181
G1X42.552Y5.197
G1X42.286
G1X42.05
G1X41.826Y5.186
G1X41.462Y5.163
G1X41.299
G1X41.168
G1X41.074Y5.18
G1X41.018Y5.211
G1X40.999Y5.253
G1X41.016Y5.297
G1X41.064Y5.33
G1X41.145Y5.351
G1X41.258Y5.362
G1X41.471Y5.393
G1X41.635Y5.465
G1X41.76Y5.579
G1X41.857Y5.724
G1X41.908Y5.846
G1X41.976Y6.047
G1X42.063Y6.326
G1X42.236Y6.924
G1X42.293Y7.11
G1X42.337Y7.242
G1X42.369Y7.321
G1X42.255
G1X39.775
G1X39.797Y7.411
G1X39.852Y7.538
G1X39.973Y7.638
; Layer C00 Pass 2 of 3
G1X40.169Y7.809
G1X40.788Y8.364
G1X41.329Y8.846
G1X41.842Y9.289
G1X42.326Y9.694
G1X42.782Y10.059
G1X43.718Y10.783
G1X43.807Y10.806
G1X43.96
G1X44.024
G1X44.069Y10.792
G1X44.096Y10.764
G1Y10.726
G1Y10.655
G1X44.044Y10.49
G1X43.967Y10.232
G1X43.86Y9.88
G1X43.553Y8.896
G1X43.123Y7.538
G1X43.857
G1X43.988Y7.549
G1X44.108Y7.584
G1X44.216Y7.642
G1X44.312Y7.724
G1X44.459Y7.923
G1X44.539Y8.147
G1X44.578Y8.244
G1X44.643Y8.277
G1X44.724Y8.252
G1X44.751Y8.178
G1X44.732Y8.041
G1X44.674Y7.868
G1X44.219Y6.411
G1X44.163Y6.345
G1X44.11Y6.323
G1X44.044Y6.352
G1X44.022Y6.437
G1Y6.472
G1Y6.514
G1X44.06Y6.64
G1Y6.768
G1Y6.934
G1X44.002Y7.072
G1X43.927Y7.18
G1X43.826Y7.253
G1X43.697Y7.296
G1X43.526Y7.31
G1X43.061Y7.321
G1X42.751Y6.282
G1X42.682Y6.04
G1X42.658Y5.853
G1X42.689Y5.693
G1X42.782Y5.533
G1X42.859Y5.463
G1X42.961Y5.411
G1X43.087Y5.376
G1X43.339Y5.344
G1X43.411Y5.322
G1X43.455Y5.29
G1X43.47Y5.248
G1X43.457Y5.205
G1X43.419Y5.175
G1X43.356Y5.156
G1X43.268
G1X43.196
G1X43.092
G1X42.793Y5.181
G1X42.552Y5.197
G1X42.286
G1X42.05
G1X41.826Y5.186
G1X41.462Y5.163
G1X41.299
G1X41.168
G1X41.074Y5.18
G1X41.018Y5.211
G1X40.999Y5.253
G1X41.016Y5.297
G1X41.064Y5.33
G1X41.145Y5.351
G1X41.258Y5.362
G1X41.471Y5.393
G1X41.635Y5.465
G1X41.76Y5.579
G1X41.857Y5.724
G1X41.908Y5.846
G1X41.976Y6.047
G1X42.063Y6.326
G1X42.236Y6.924
G1X42.293Y7.11
G1X42.337Y7.242
G1X42.369Y7.321
G1X42.255
G1X39.775
G1X39.797Y7.411
G1X39.852Y7.538
G1X39.973Y7.638
; Layer C00 Pass 3 of 3
G1X40.169Y7.809
G1X40.788Y8.364
G1X41.329Y8.846
G1X41.842Y9.289
G1X42.326Y9.694
G1X42.782Y10.059
G1X43.718Y10.783
G1X43.807Y10.806
G1X43.96
G1X44.024
G1X44.069Y10.792
G1X44.096Y10.764
G1Y10.726
G1Y10.655
G1X44.044Y10.49
G1X43.967Y10.232
G1X43.86Y9.88
G1X43.553Y8.896
G1X43.123Y7.538
G1X43.857
G1X43.988Y7.549
G1X44.108Y7.584
G1X44.216Y7.642
G1X44.312Y7.724
G1X44.459Y7.923
G1X44.539Y8.147
G1X44.578Y8.244
G1X44.643Y8.277
G1X44.724Y8.252
G1X44.751Y8.178
G1X44.732Y8.041
G1X44.674Y7.868
G1X44.219Y6.411
G1X44.163Y6.345
G1X44.11Y6.323
G1X44.044Y6.352
G1X44.022Y6.437
G1Y6.472
G1Y6.514
G1X44.06Y6.64
G1Y6.768
G1Y6.934
G1X44.002Y7.072
G1X43.927Y7.18
G1X43.826Y7.253
G1X43.697Y7.296
G1X43.526Y7.31
G1X43.061Y7.321
G1X42.751Y6.282
G1X42.682Y6.04
G1X42.658Y5.853
G1X42.689Y5.693
G1X42.782Y5.533
G1X42.859Y5.463
G1X42.961Y5.411
G1X43.087Y5.376
G1X43.339Y5.344
G1X43.411Y5.322
G1X43.455Y5.29
G1X43.47Y5.248
G1X43.457Y5.205
G1X43.419Y5.175
G1X43.356Y5.156
G1X43.268
G1X43.196
G1X43.092
G1X42.793Y5.181
G1X42.552Y5.197
G1X42.286
G1X42.05
G1X41.826Y5.186
G1X41.462Y5.163
G1X41.299
G1X41.168
G1X41.074Y5.18
G1X41.018Y5.211
G1X40.999Y5.253
G1X41.016Y5.297
G1X41.064Y5.33
G1X41.145Y5.351
G1X41.258Y5.362
G1X41.471Y5.393
G1X41.635Y5.465
G1X41.76Y5.579
G1X41.857Y5.724
G1X41.908Y5.846
G1X41.976Y6.047
G1X42.063Y6.326
G1X42.236Y6.924
G1X42.293Y7.11
G1X42.337Y7.242
G1X42.369Y7.321
G1X42.255
G1X39.775
G1X39.797Y7.411
G1X39.852Y7.538
G1X39.973Y7.638
G0X45.043Y6.533
; Layer C00 Pass 1 of 3
G1X45.128Y6.684
G1X45.27Y6.774
G1X45.469Y6.804
G1X45.637Y6.781
G1X45.756Y6.711
G1X45.828Y6.594
G1X45.852Y6.432
G1X45.835Y6.318
G1X45.785Y6.163
G1X45.734Y6.018
G1X45.717Y5.905
G1X45.731Y5.799
G1X45.773Y5.693
G1X45.842Y5.587
G1X45.94Y5.481
G1X46.062Y5.39
G1X46.207Y5.326
G1X46.375Y5.287
G1X46.565Y5.274
G1X46.765Y5.288
G1X46.957Y5.328
G1X47.14Y5.395
G1X47.316Y5.489
G1X47.483Y5.609
G1X47.641Y5.757
G1X47.792Y5.931
G1X47.934Y6.132
G1X48.179Y6.558
G1X48.353Y6.972
G1X48.458Y7.374
G1X48.493Y7.765
G1X48.476Y7.96
G1X48.427Y8.133
G1X48.344Y8.283
G1X48.229Y8.411
G1X48.093Y8.515
G1X47.947Y8.589
G1X47.793Y8.634
G1X47.63Y8.649
G1X47.41Y8.62
G1X47.175Y8.535
G1X46.959Y8.421
G1X46.798Y8.297
G1X46.648Y8.128
G1X46.371Y7.745
G1X46.291Y7.65
G1X46.227Y7.593
G1X46.177Y7.574
G1X46.1Y7.6
G1X46.074Y7.677
G1Y7.726
G1X46.105Y7.78
G1X47.314Y10.762
G1X47.627Y10.69
G1X47.919Y10.638
G1X48.19Y10.607
G1X48.441Y10.597
G1X48.814Y10.627
G1X49.141Y10.72
G1X49.423Y10.873
G1X49.66Y11.088
G1X49.74Y11.176
G1X49.805Y11.239
G1X49.854Y11.277
G1X49.888Y11.289
G1X49.965Y11.262
G1X49.991Y11.181
G1X49.974Y11.106
G1X49.921Y11.001
G1X49.834Y10.866
G1X49.712Y10.7
G1X49.565Y10.532
G1X49.403Y10.388
G1X49.227Y10.268
G1X49.035Y10.173
G1X48.819Y10.103
G1X48.565Y10.053
G1X48.272Y10.023
G1X47.94Y10.013
G1X47.566Y10.024
G1X47.263Y10.059
G1X47.057Y9.585
G1X46.879Y9.163
G1X46.729Y8.794
G1X46.606Y8.478
G1X46.896Y8.645
G1X47.175Y8.762
G1X47.449Y8.836
G1X47.712Y8.86
G1X48.033Y8.833
G1X48.323Y8.751
G1X48.583Y8.613
G1X48.813Y8.421
G1X49.003Y8.189
G1X49.138Y7.926
G1X49.22Y7.633
G1X49.247Y7.31
G1X49.204Y6.91
G1X49.076Y6.521
G1X48.863Y6.143
G1X48.565Y5.775
G1X48.388Y5.607
G1X48.197Y5.461
G1X47.991Y5.338
G1X47.77Y5.237
G1X47.535Y5.158
G1X47.285Y5.102
G1X47.02Y5.068
G1X46.741Y5.057
G1X46.344Y5.083
G1X45.998Y5.159
G1X45.701Y5.287
G1X45.454Y5.465
G1X45.262Y5.674
G1X45.125Y5.886
G1X45.042Y6.103
G1X45.015Y6.323
G1X45.043Y6.533
; Layer C00 Pass 2 of 3
G1X45.128Y6.684
G1X45.27Y6.774
G1X45.469Y6.804
G1X45.637Y6.781
G1X45.756Y6.711
G1X45.828Y6.594
G1X45.852Y6.432
G1X45.835Y6.318
G1X45.785Y6.163
G1X45.734Y6.018
G1X45.717Y5.905
G1X45.731Y5.799
G1X45.773Y5.693
G1X45.842Y5.587
G1X45.94Y5.481
G1X46.062Y5.39
G1X46.207Y5.326
G1X46.375Y5.287
G1X46.565Y5.274
G1X46.765Y5.288
G1X46.957Y5.328
G1X47.14Y5.395
G1X47.316Y5.489
G1X47.483Y5.609
G1X47.641Y5.757
G1X47.792Y5.931
G1X47.934Y6.132
G1X48.179Y6.558
G1X48.353Y6.972
G1X48.458Y7.374
G1X48.493Y7.765
G1X48.476Y7.96
G1X48.427Y8.133
G1X48.344Y8.283
G1X48.229Y8.411
G1X48.093Y8.515
G1X47.947Y8.589
G1X47.793Y8.634
G1X47.63Y8.649
G1X47.41Y8.62
G1X47.175Y8.535
G1X46.959Y8.421
G1X46.798Y8.297
G1X46.648Y8.128
G1X46.371Y7.745
G1X46.291Y7.65
G1X46.227Y7.593
G1X46.177Y7.574
G1X46.1Y7.6
G1X46.074Y7.677
G1Y7.726
G1X46.105Y7.78
G1X47.314Y10.762
G1X47.627Y10.69
G1X47.919Y10.638
G1X48.19Y10.607
G1X48.441Y10.597
G1X48.814Y10.627
G1X49.141Y10.72
G1X49.423Y10.873
G1X49.66Y11.088
G1X49.74Y11.176
G1X49.805Y11.239
G1X49.854Y11.277
G1X49.888Y11.289
G1X49.965Y11.262
G1X49.991Y11.181
G1X49.974Y11.106
G1X49.921Y11.001
G1X49.834Y10.866
G1X49.712Y10.7
G1X49.565Y10.532
G1X49.403Y10.388
G1X49.227Y10.268
G1X49.035Y10.173
G1X48.819Y10.103
G1X48.565Y10.053
G1X48.272Y10.023
G1X47.94Y10.013
G1X47.566Y10.024
G1X47.263Y10.059
G1X47.057Y9.585
G1X46.879Y9.163
G1X46.729Y8.794
G1X46.606Y8.478
G1X46.896Y8.645
G1X47.175Y8.762
G1X47.449Y8.836
G1X47.712Y8.86
G1X48.033Y8.833
G1X48.323Y8.751
G1X48.583Y8.613
G1X48.813Y8.421
G1X49.003Y8.189
G1X49.138Y7.926
G1X49.22Y7.633
G1X49.247Y7.31
G1X49.204Y6.91
G1X49.076Y6.521
G1X48.863Y6.143
G1X48.565Y5.775
G1X48.388Y5.607
G1X48.197Y5.461
G1X47.991Y5.338
G1X47.77Y5.237
G1X47.535Y5.158
G1X47.285Y5.102
G1X47.02Y5.068
G1X46.741Y5.057
G1X46.344Y5.083
G1X45.998Y5.159
G1X45.701Y5.287
G1X45.454Y5.465
G1X45.262Y5.674
G1X45.125Y5.886
G1X45.042Y6.103
G1X45.015Y6.323
G1X45.043Y6.533
; Layer C00 Pass 3 of 3
G1X45.128Y6.684
G1X45.27Y6.774
G1X45.469Y6.804
G1X45.637Y6.781
G1X45.756Y6.711
G1X45.828Y6.594
G1X45.852Y6.432
G1X45.835Y6.318
G1X45.785Y6.163
G1X45.734Y6.018
G1X45.717Y5.905
G1X45.731Y5.799
G1X45.773Y5.693
G1X45.842Y5.587
G1X45.94Y5.481
G1X46.062Y5.39
G1X46.207Y5.326
G1X46.375Y5.287
G1X46.565Y5.274
G1X46.765Y5.288
G1X46.957Y5.328
G1X47.14Y5.395
G1X47.316Y5.489
G1X47.483Y5.609
G1X47.641Y5.757
G1X47.792Y5.931
G1X47.934Y6.132
G1X48.179Y6.558
G1X48.353Y6.972
G1X48.458Y7.374
G1X48.493Y7.765
G1X48.476Y7.96
G1X48.427Y8.133
G1X48.344Y8.283
G1X48.229Y8.411
G1X48.093Y8.515
G1X47.947Y8.589
G1X47.793Y8.634
G1X47.63Y8.649
G1X47.41Y8.62
G1X47.175Y8.535
G1X46.959Y8.421
G1X46.798Y8.297
G1X46.648Y8.128
G1X46.371Y7.745
G1X46.291Y7.65
G1X46.227Y7.593
G1X46.177Y7.574
G1X46.1Y7.6
G1X46.074Y7.677
G1Y7.726
G1X46.105Y7.78
G1X47.314Y10.762
G1X47.627Y10.69
G1X47.919Y10.638
G1X48.19Y10.607
G1X48.441Y10.597
G1X48.814Y10.627
G1X49.141Y10.72
G1X49.423Y10.873
G1X49.66Y11.088
G1X49.74Y11.176
G1X49.805Y11.239
G1X49.854Y11.277
G1X49.888Y11.289
G1X49.965Y11.262
G1X49.991Y11.181
G1X49.974Y11.106
G1X49.921Y11.001
G1X49.834Y10.866
G1X49.712Y10.7
G1X49.565Y10.532
G1X49.403Y10.388
G1X49.227Y10.268
G1X49.035Y10.173
G1X48.819Y10.103
G1X48.565Y10.053
G1X48.272Y10.023
G1X47.94Y10.013
G1X47.566Y10.024
G1X47.263Y10.059
G1X47.057Y9.585
G1X46.879Y9.163
G1X46.729Y8.794
G1X46.606Y8.478
G1X46.896Y8.645
G1X47.175Y8.762
G1X47.449Y8.836
G1X47.712Y8.86
G1X48.033Y8.833
G1X48.323Y8.751
G1X48.583Y8.613
G1X48.813Y8.421
G1X49.003Y8.189
G1X49.138Y7.926
G1X49.22Y7.633
G1X49.247Y7.31
G1X49.204Y6.91
G1X49.076Y6.521
G1X48.863Y6.143
G1X48.565Y5.775
G1X48.388Y5.607
G1X48.197Y5.461
G1X47.991Y5.338
G1X47.77Y5.237
G1X47.535Y5.158
G1X47.285Y5.102
G1X47.02Y5.068
G1X46.741Y5.057
G1X46.344Y5.083
G1X45.998Y5.159
G1X45.701Y5.287
G1X45.454Y5.465
G1X45.262Y5.674
G1X45.125Y5.886
G1X45.042Y6.103
G1X45.015Y6.323
G1X45.043Y6.533
G0X50.105Y6.271
; Layer C00 Pass 1 of 3
G1X50.136Y6.46
G1X50.229Y6.623
G1X50.295Y6.688
G1X50.368Y6.735
G1X50.45Y6.763
G1X50.539
G1X50.703Y6.744
G1X50.833Y6.659
G1X50.919Y6.538
G1X50.947Y6.401
G1X50.93Y6.306
G1X50.88Y6.178
G1X50.822Y6.011
G1X50.802Y5.879
G1X50.819Y5.749
G1X50.87Y5.628
G1X50.954Y5.516
G1X51.071Y5.414
G1X51.211Y5.33
G1X51.363Y5.27
G1X51.527Y5.234
G1X51.702Y5.222
G1X52.036Y5.266
G1X52.346Y5.396
G1X52.633Y5.612
G1X52.895Y5.915
G1X53.115Y6.259
G1X53.271Y6.597
G1X53.365Y6.93
G1X53.397Y7.259
G1X53.387Y7.382
G1X53.357Y7.505
G1X53.306Y7.628
G1X53.236Y7.749
G1X53.148Y7.856
G1X53.037Y7.932
G1X52.905Y7.977
G1X52.751Y7.992
G1X52.638Y7.981
G1X52.51Y7.948
G1X52.369Y7.893
G1X52.213Y7.817
G1X52.108Y7.762
G1X52.026Y7.724
G1X51.966Y7.7
G1X51.929
G1X51.855Y7.718
G1X51.831Y7.796
G1X51.848Y7.845
G1X51.901Y7.894
G1X51.988Y7.943
G1X52.11Y7.992
G1X52.401Y8.132
G1X52.662Y8.265
G1X52.894Y8.393
G1X53.096Y8.516
G1X53.267Y8.632
G1X53.409Y8.743
G1X53.521Y8.849
G1X53.603Y8.948
G1X53.721Y9.142
G1X53.805Y9.332
G1X53.855Y9.517
G1X53.872Y9.698
G1X53.858Y9.883
G1X53.816Y10.048
G1X53.747Y10.191
G1X53.65Y10.313
G1X53.527Y10.41
G1X53.382Y10.479
G1X53.215Y10.521
G1X53.025Y10.535
G1X52.786Y10.513
G1X52.565Y10.447
G1X52.362Y10.337
G1X52.177Y10.183
G1X52.026Y10.002
G1X51.917Y9.805
G1X51.852Y9.591
G1X51.831Y9.362
G1X51.851Y9.171
G1X51.913Y9.031
G1X52.016Y8.95
G1X52.156Y8.922
G1X52.257Y8.935
G1X52.364Y8.974
G1X52.477Y9.039
G1X52.721Y9.226
G1X52.797Y9.258
G1X52.859Y9.239
G1X52.88Y9.181
G1X52.858Y9.097
G1X52.793Y9.005
G1X52.685Y8.906
G1X52.534Y8.798
G1X52.367Y8.701
G1X52.208Y8.632
G1X52.057Y8.59
G1X51.913Y8.576
G1X51.777Y8.589
G1X51.653Y8.628
G1X51.539Y8.693
G1X51.438Y8.783
G1X51.357Y8.892
G1X51.299Y9.009
G1X51.264Y9.133
G1X51.252Y9.264
G1X51.287Y9.554
G1X51.39Y9.824
G1X51.563Y10.076
G1X51.805Y10.307
G1X52.1Y10.502
G1X52.428Y10.641
G1X52.787Y10.724
G1X53.18Y10.752
G1X53.499Y10.73
G1X53.782Y10.665
G1X54.026Y10.557
G1X54.234Y10.406
G1X54.401Y10.226
G1X54.521Y10.034
G1X54.592Y9.828
G1X54.616Y9.61
G1X54.599Y9.43
G1X54.548Y9.253
G1X54.462Y9.079
G1X54.342Y8.907
G1X54.26Y8.821
G1X54.15Y8.733
G1X54.013Y8.643
G1X53.847Y8.552
G1X53.655Y8.458
G1X53.434Y8.363
G1X53.186Y8.267
G1X52.911Y8.168
G1X53.238Y8.143
G1X53.51Y8.074
G1X53.729Y7.96
G1X53.893Y7.801
G1X54.015Y7.619
G1X54.102Y7.428
G1X54.154Y7.228
G1X54.172Y7.021
G1X54.132Y6.652
G1X54.013Y6.3
G1X53.814Y5.965
G1X53.536Y5.646
G1X53.192Y5.375
G1X52.791Y5.181
G1X52.332Y5.065
G1X51.815Y5.026
G1X51.417Y5.049
G1X51.071Y5.119
G1X50.777Y5.235
G1X50.534Y5.398
G1X50.346Y5.594
G1X50.212Y5.805
G1X50.132Y6.031
G1X50.105Y6.271
; Layer C00 Pass 2 of 3
G1X50.136Y6.46
G1X50.229Y6.623
G1X50.295Y6.688
G1X50.368Y6.735
G1X50.45Y6.763
G1X50.539
G1X50.703Y6.744
G1X50.833Y6.659
G1X50.919Y6.538
G1X50.947Y6.401
G1X50.93Y6.306
G1X50.88Y6.178
G1X50.822Y6.011
G1X50.802Y5.879
G1X50.819Y5.749
G1X50.87Y5.628
G1X50.954Y5.516
G1X51.071Y5.414
G1X51.211Y5.33
G1X51.363Y5.27
G1X51.527Y5.234
G1X51.702Y5.222
G1X52.036Y5.266
G1X52.346Y5.396
G1X52.633Y5.612
G1X52.895Y5.915
G1X53.115Y6.259
G1X53.271Y6.597
G1X53.365Y6.93
G1X53.397Y7.259
G1X53.387Y7.382
G1X53.357Y7.505
G1X53.306Y7.628
G1X53.236Y7.749
G1X53.148Y7.856
G1X53.037Y7.932
G1X52.905Y7.977
G1X52.751Y7.992
G1X52.638Y7.981
G1X52.51Y7.948
G1X52.369Y7.893
G1X52.213Y7.817
G1X52.108Y7.762
G1X52.026Y7.724
G1X51.966Y7.7
G1X51.929
G1X51.855Y7.718
G1X51.831Y7.796
G1X51.848Y7.845
G1X51.901Y7.894
G1X51.988Y7.943
G1X52.11Y7.992
G1X52.401Y8.132
G1X52.662Y8.265
G1X52.894Y8.393
G1X53.096Y8.516
G1X53.267Y8.632
G1X53.409Y8.743
G1X53.521Y8.849
G1X53.603Y8.948
G1X53.721Y9.142
G1X53.805Y9.332
G1X53.855Y9.517
G1X53.872Y9.698
G1X53.858Y9.883
G1X53.816Y10.048
G1X53.747Y10.191
G1X53.65Y10.313
G1X53.527Y10.41
G1X53.382Y10.479
G1X53.215Y10.521
G1X53.025Y10.535
G1X52.786Y10.513
G1X52.565Y10.447
G1X52.362Y10.337
G1X52.177Y10.183
G1X52.026Y10.002
G1X51.917Y9.805
G1X51.852Y9.591
G1X51.831Y9.362
G1X51.851Y9.171
G1X51.913Y9.031
G1X52.016Y8.95
G1X52.156Y8.922
G1X52.257Y8.935
G1X52.364Y8.974
G1X52.477Y9.039
G1X52.721Y9.226
G1X52.797Y9.258
G1X52.859Y9.239
G1X52.88Y9.181
G1X52.858Y9.097
G1X52.793Y9.005
G1X52.685Y8.906
G1X52.534Y8.798
G1X52.367Y8.701
G1X52.208Y8.632
G1X52.057Y8.59
G1X51.913Y8.576
G1X51.777Y8.589
G1X51.653Y8.628
G1X51.539Y8.693
G1X51.438Y8.783
G1X51.357Y8.892
G1X51.299Y9.009
G1X51.264Y9.133
G1X51.252Y9.264
G1X51.287Y9.554
G1X51.39Y9.824
G1X51.563Y10.076
G1X51.805Y10.307
G1X52.1Y10.502
G1X52.428Y10.641
G1X52.787Y10.724
G1X53.18Y10.752
G1X53.499Y10.73
G1X53.782Y10.665
G1X54.026Y10.557
G1X54.234Y10.406
G1X54.401Y10.226
G1X54.521Y10.034
G1X54.592Y9.828
G1X54.616Y9.61
G1X54.599Y9.43
G1X54.548Y9.253
G1X54.462Y9.079
G1X54.342Y8.907
G1X54.26Y8.821
G1X54.15Y8.733
G1X54.013Y8.643
G1X53.847Y8.552
G1X53.655Y8.458
G1X53.434Y8.363
G1X53.186Y8.267
G1X52.911Y8.168
G1X53.238Y8.143
G1X53.51Y8.074
G1X53.729Y7.96
G1X53.893Y7.801
G1X54.015Y7.619
G1X54.102Y7.428
G1X54.154Y7.228
G1X54.172Y7.021
G1X54.132Y6.652
G1X54.013Y6.3
G1X53.814Y5.965
G1X53.536Y5.646
G1X53.192Y5.375
G1X52.791Y5.181
G1X52.332Y5.065
G1X51.815Y5.026
G1X51.417Y5.049
G1X51.071Y5.119
G1X50.777Y5.235
G1X50.534Y5.398
G1X50.346Y5.594
G1X50.212Y5.805
G1X50.132Y6.031
G1X50.105Y6.271
; Layer C00 Pass 3 of 3
G1X50.136Y6.46
G1X50.229Y6.623
G1X50.295Y6.688
G1X50.368Y6.735
G1X50.45Y6.763
G1X50.539
G1X50.703Y6.744
G1X50.833Y6.659
G1X50.919Y6.538
G1X50.947Y6.401
G1X50.93Y6.306
G1X50.88Y6.178
G1X50.822Y6.011
G1X50.802Y5.879
G1X50.819Y5.749
G1X50.87Y5.628
G1X50.954Y5.516
G1X51.071Y5.414
G1X51.211Y5.33
G1X51.363Y5.27
G1X51.527Y5.234
G1X51.702Y5.222
G1X52.036Y5.266
G1X52.346Y5.396
G1X52.633Y5.612
G1X52.895Y5.915
G1X53.115Y6.259
G1X53.271Y6.597
G1X53.365Y6.93
G1X53.397Y7.259
G1X53.387Y7.382
G1X53.357Y7.505
G1X53.306Y7.628
G1X53.236Y7.749
G1X53.148Y7.856
G1X53.037Y7.932
G1X52.905Y7.977
G1X52.751Y7.992
G1X52.638Y7.981
G1X52.51Y7.948
G1X52.369Y7.893
G1X52.213Y7.817
G1X52.108Y7.762
G1X52.026Y7.724
G1X51.966Y7.7
G1X51.929
G1X51.855Y7.718
G1X51.831Y7.796
G1X51.848Y7.845
G1X51.901Y7.894
G1X51.988Y7.943
G1X52.11Y7.992
G1X52.401Y8.132
G1X52.662Y8.265
G1X52.894Y8.393
G1X53.096Y8.516
G1X53.267Y8.632
G1X53.409Y8.743
G1X53.521Y8.849
G1X53.603Y8.948
G1X53.721Y9.142
G1X53.805Y9.332
G1X53.855Y9.517
G1X53.872Y9.698
G1X53.858Y9.883
G1X53.816Y10.048
G1X53.747Y10.191
G1X53.65Y10.313
G1X53.527Y10.41
G1X53.382Y10.479
G1X53.215Y10.521
G1X53.025Y10.535
G1X52.786Y10.513
G1X52.565Y10.447
G1X52.362Y10.337
G1X52.177Y10.183
G1X52.026Y10.002
G1X51.917Y9.805
G1X51.852Y9.591
G1X51.831Y9.362
G1X51.851Y9.171
G1X51.913Y9.031
G1X52.016Y8.95
G1X52.156Y8.922
G1X52.257Y8.935
G1X52.364Y8.974
G1X52.477Y9.039
G1X52.721Y9.226
G1X52.797Y9.258
G1X52.859Y9.239
G1X52.88Y9.181
G1X52.858Y9.097
G1X52.793Y9.005
G1X52.685Y8.906
G1X52.534Y8.798
G1X52.367Y8.701
G1X52.208Y8.632
G1X52.057Y8.59
G1X51.913Y8.576
G1X51.777Y8.589
G1X51.653Y8.628
G1X51.539Y8.693
G1X51.438Y8.783
G1X51.357Y8.892
G1X51.299Y9.009
G1X51.264Y9.133
G1X51.252Y9.264
G1X51.287Y9.554
G1X51.39Y9.824
G1X51.563Y10.076
G1X51.805Y10.307
G1X52.1Y10.502
G1X52.428Y10.641
G1X52.787Y10.724
G1X53.18Y10.752
G1X53.499Y10.73
G1X53.782Y10.665
G1X54.026Y10.557
G1X54.234Y10.406
G1X54.401Y10.226
G1X54.521Y10.034
G1X54.592Y9.828
G1X54.616Y9.61
G1X54.599Y9.43
G1X54.548Y9.253
G1X54.462Y9.079
G1X54.342Y8.907
G1X54.26Y8.821
G1X54.15Y8.733
G1X54.013Y8.643
G1X53.847Y8.552
G1X53.655Y8.458
G1X53.434Y8.363
G1X53.186Y8.267
G1X52.911Y8.168
G1X53.238Y8.143
G1X53.51Y8.074
G1X53.729Y7.96
G1X53.893Y7.801
G1X54.015Y7.619
G1X54.102Y7.428
G1X54.154Y7.228
G1X54.172Y7.021
G1X54.132Y6.652
G1X54.013Y6.3
G1X53.814Y5.965
G1X53.536Y5.646
G1X53.192Y5.375
G1X52.791Y5.181
G1X52.332Y5.065
G1X51.815Y5.026
G1X51.417Y5.049
G1X51.071Y5.119
G1X50.777Y5.235
G1X50.534Y5.398
G1X50.346Y5.594
G1X50.212Y5.805
G1X50.132Y6.031
G1X50.105Y6.271
G0X55.713Y5.354
; Layer C00 Pass 1 of 3
G1X55.929Y6.018
G1X56.104Y6.683
G1X56.257Y7.267
G1X56.385Y7.772
G1X56.491Y8.198
G1X56.573Y8.544
G1X56.631Y8.81
G1X56.666Y8.996
G1X56.678Y9.103
G1X56.659Y9.177
G1X56.601Y9.202
G1X56.54Y9.185
G1X56.458Y9.136
G1X56.354Y9.053
G1X56.228Y8.938
G1X55.973Y8.667
G1X55.753Y8.38
G1X55.677Y8.278
G1X55.611Y8.205
G1X55.553Y8.162
G1X55.505Y8.147
G1X55.439Y8.168
G1X55.417Y8.23
G1X55.451Y8.322
G1X55.552Y8.475
G1X55.719Y8.689
G1X55.955Y8.964
G1X56.215Y9.233
G1X56.458Y9.425
G1X56.685Y9.54
G1X56.895Y9.579
G1X56.994
G1X57.08Y9.546
G1X57.152Y9.506
G1X57.21Y9.45
G1X57.292Y9.322
G1X57.319Y9.186
G1Y9.094
G1X57.303Y8.978
G1X57.284Y8.838
G1X57.257Y8.674
G1X57.228Y8.477
G1X57.184Y8.122
G1X57.401Y8.463
G1X57.611Y8.758
G1X57.814Y9.008
G1X58.011Y9.212
G1X58.202Y9.372
G1X58.387Y9.487
G1X58.567Y9.556
G1X58.74Y9.579
G1X58.849
G1X58.948Y9.545
G1X59.037Y9.503
G1X59.117Y9.444
G1X59.185Y9.372
G1X59.233Y9.288
G1X59.263Y9.193
G1Y9.088
G1X59.241Y8.908
G1X59.148Y8.742
G1X59.084Y8.672
G1X59.011Y8.621
G1X58.929Y8.591
G1X58.838
G1X58.688
G1X58.569Y8.655
G1X58.482Y8.747
G1X58.425Y8.876
G1X58.364Y9.023
G1X58.285Y9.072
G1X58.192Y9.041
G1X58.071Y8.946
G1X57.923Y8.787
G1X57.748Y8.566
G1X57.559Y8.296
G1X57.369Y7.994
G1X57.179Y7.658
G1X56.988Y7.29
G1X56.259Y5.057
G1X55.98
G1X55.696
G1X55.624
G1X55.653Y5.16
G1X55.713Y5.354
; Layer C00 Pass 2 of 3
G1X55.929Y6.018
G1X56.104Y6.683
G1X56.257Y7.267
G1X56.385Y7.772
G1X56.491Y8.198
G1X56.573Y8.544
G1X56.631Y8.81
G1X56.666Y8.996
G1X56.678Y9.103
G1X56.659Y9.177
G1X56.601Y9.202
G1X56.54Y9.185
G1X56.458Y9.136
G1X56.354Y9.053
G1X56.228Y8.938
G1X55.973Y8.667
G1X55.753Y8.38
G1X55.677Y8.278
G1X55.611Y8.205
G1X55.553Y8.162
G1X55.505Y8.147
G1X55.439Y8.168
G1X55.417Y8.23
G1X55.451Y8.322
G1X55.552Y8.475
G1X55.719Y8.689
G1X55.955Y8.964
G1X56.215Y9.233
G1X56.458Y9.425
G1X56.685Y9.54
G1X56.895Y9.579
G1X56.994
G1X57.08Y9.546
G1X57.152Y9.506
G1X57.21Y9.45
G1X57.292Y9.322
G1X57.319Y9.186
G1Y9.094
G1X57.303Y8.978
G1X57.284Y8.838
G1X57.257Y8.674
G1X57.228Y8.477
G1X57.184Y8.122
G1X57.401Y8.463
G1X57.611Y8.758
G1X57.814Y9.008
G1X58.011Y9.212
G1X58.202Y9.372
G1X58.387Y9.487
G1X58.567Y9.556
G1X58.74Y9.579
G1X58.849
G1X58.948Y9.545
G1X59.037Y9.503
G1X59.117Y9.444
G1X59.185Y9.372
G1X59.233Y9.288
G1X59.263Y9.193
G1Y9.088
G1X59.241Y8.908
G1X59.148Y8.742
G1X59.084Y8.672
G1X59.011Y8.621
G1X58.929Y8.591
G1X58.838
G1X58.688
G1X58.569Y8.655
G1X58.482Y8.747
G1X58.425Y8.876
G1X58.364Y9.023
G1X58.285Y9.072
G1X58.192Y9.041
G1X58.071Y8.946
G1X57.923Y8.787
G1X57.748Y8.566
G1X57.559Y8.296
G1X57.369Y7.994
G1X57.179Y7.658
G1X56.988Y7.29
G1X56.259Y5.057
G1X55.98
G1X55.696
G1X55.624
G1X55.653Y5.16
G1X55.713Y5.354
; Layer C00 Pass 3 of 3
G1X55.929Y6.018
G1X56.104Y6.683
G1X56.257Y7.267
G1X56.385Y7.772
G1X56.491Y8.198
G1X56.573Y8.544
G1X56.631Y8.81
G1X56.666Y8.996
G1X56.678Y9.103
G1X56.659Y9.177
G1X56.601Y9.202
G1X56.54Y9.185
G1X56.458Y9.136
G1X56.354Y9.053
G1X56.228Y8.938
G1X55.973Y8.667
G1X55.753Y8.38
G1X55.677Y8.278
G1X55.611Y8.205
G1X55.553Y8.162
G1X55.505Y8.147
G1X55.439Y8.168
G1X55.417Y8.23
G1X55.451Y8.322
G1X55.552Y8.475
G1X55.719Y8.689
G1X55.955Y8.964
G1X56.215Y9.233
G1X56.458Y9.425
G1X56.685Y9.54
G1X56.895Y9.579
G1X56.994
G1X57.08Y9.546
G1X57.152Y9.506
G1X57.21Y9.45
G1X57.292Y9.322
G1X57.319Y9.186
G1Y9.094
G1X57.303Y8.978
G1X57.284Y8.838
G1X57.257Y8.674
G1X57.228Y8.477
G1X57.184Y8.122
G1X57.401Y8.463
G1X57.611Y8.758
G1X57.814Y9.008
G1X58.011Y9.212
G1X58.202Y9.372
G1X58.387Y9.487
G1X58.567Y9.556
G1X58.74Y9.579
G1X58.849
G1X58.948Y9.545
G1X59.037Y9.503
G1X59.117Y9.444
G1X59.185Y9.372
G1X59.233Y9.288
G1X59.263Y9.193
G1Y9.088
G1X59.241Y8.908
G1X59.148Y8.742
G1X59.084Y8.672
G1X59.011Y8.621
G1X58.929Y8.591
G1X58.838
G1X58.688
G1X58.569Y8.655
G1X58.482Y8.747
G1X58.425Y8.876
G1X58.364Y9.023
G1X58.285Y9.072
G1X58.192Y9.041
G1X58.071Y8.946
G1X57.923Y8.787
G1X57.748Y8.566
G1X57.559Y8.296
G1X57.369Y7.994
G1X57.179Y7.658
G1X56.988Y7.29
G1X56.259Y5.057
G1X55.98
G1X55.696
G1X55.624
G1X55.653Y5.16
G1X55.713Y5.354
G0X58.368Y4.365
; Layer C00 Pass 1 of 3
G1X63.784
G1Y3.838
G1X58.368
G1Y4.365
; Layer C00 Pass 2 of 3
G1X63.784
G1Y3.838
G1X58.368
G1Y4.365
; Layer C00 Pass 3 of 3
G1X63.784
G1Y3.838
G1X58.368
G1Y4.365
G0X64.656Y5.805
; Layer C00 Pass 1 of 3
G1X64.575Y6.031
G1X64.548Y6.271
G1X64.579Y6.46
G1X64.672Y6.623
G1X64.738Y6.688
G1X64.812Y6.735
G1X64.893Y6.763
G1X64.982
G1X65.147Y6.744
G1X65.277Y6.659
G1X65.362Y6.538
G1X65.391Y6.401
G1X65.374Y6.306
G1X65.324Y6.178
G1X65.265Y6.011
G1X65.246Y5.879
G1X65.263Y5.749
G1X65.313Y5.628
G1X65.397Y5.516
G1X65.515Y5.414
G1X65.655Y5.33
G1X65.807Y5.27
G1X65.97Y5.234
G1X66.145Y5.222
G1X66.479Y5.266
G1X66.79Y5.396
G1X67.076Y5.612
G1X67.339Y5.915
G1X67.558Y6.259
G1X67.715Y6.597
G1X67.809Y6.93
G1X67.84Y7.259
G1Y7.382
G1X67.8Y7.505
G1X67.75Y7.628
G1X67.68Y7.749
G1X67.591Y7.856
G1X67.481Y7.932
G1X67.349Y7.977
G1X67.194Y7.992
G1X67.081Y7.981
G1X66.954Y7.948
G1X66.812Y7.893
G1X66.657Y7.817
G1X66.552Y7.762
G1X66.469Y7.724
G1X66.41Y7.7
G1X66.373
G1X66.299Y7.718
G1X66.274Y7.796
G1X66.292Y7.845
G1X66.344Y7.894
G1X66.431Y7.943
G1X66.553Y7.992
G1X66.845Y8.132
G1X67.106Y8.265
G1X67.338Y8.393
G1X67.539Y8.516
G1X67.711Y8.632
G1X67.853Y8.743
G1X67.965Y8.849
G1X68.047Y8.948
G1X68.164Y9.142
G1X68.248Y9.332
G1X68.299Y9.517
G1X68.316Y9.698
G1X68.302Y9.883
G1X68.26Y10.048
G1X68.191Y10.191
G1X68.093Y10.313
G1X67.971Y10.41
G1X67.826Y10.479
G1X67.658Y10.521
G1X67.468Y10.535
G1X67.229Y10.513
G1X67.008Y10.447
G1X66.805Y10.337
G1X66.621Y10.183
G1X66.469Y10.002
G1X66.361Y9.805
G1X66.296Y9.591
G1X66.274Y9.362
G1X66.295Y9.171
G1X66.357Y9.031
G1X66.459Y8.95
G1X66.6Y8.922
G1X66.701Y8.935
G1X66.808Y8.974
G1X66.921Y9.039
G1X67.164Y9.226
G1X67.241Y9.258
G1X67.303Y9.239
G1X67.323Y9.181
G1X67.302Y9.097
G1X67.237Y9.005
G1X67.129Y8.906
G1X66.977Y8.798
G1X66.811Y8.701
G1X66.652Y8.632
G1X66.5Y8.59
G1X66.357Y8.576
G1X66.221Y8.589
G1X66.096Y8.628
G1X65.983Y8.693
G1X65.882Y8.783
G1X65.8Y8.892
G1X65.742Y9.009
G1X65.707Y9.133
G1X65.696Y9.264
G1X65.73Y9.554
G1X65.834Y9.824
G1X66.007Y10.076
G1X66.249Y10.307
G1X66.544Y10.502
G1X66.871Y10.641
G1X67.231Y10.724
G1X67.623Y10.752
G1X67.943Y10.73
G1X68.225Y10.665
G1X68.47Y10.557
G1X68.677Y10.406
G1X68.845Y10.226
G1X68.964Y10.034
G1X69.036Y9.828
G1X69.06Y9.61
G1X69.043Y9.43
G1X68.991Y9.253
G1X68.906Y9.079
G1X68.786Y8.907
G1X68.704Y8.821
G1X68.594Y8.733
G1X68.456Y8.643
G1X68.291Y8.552
G1X68.098Y8.458
G1X67.878Y8.363
G1X67.63Y8.267
G1X67.354Y8.168
G1X67.681Y8.143
G1X67.954Y8.074
G1X68.172Y7.96
G1X68.336Y7.801
G1X68.458Y7.619
G1X68.546Y7.428
G1X68.598Y7.228
G1X68.615Y7.021
G1X68.576Y6.652
G1X68.456Y6.3
G1X68.258Y5.965
G1X67.98Y5.646
G1X67.636Y5.375
G1X67.234Y5.181
G1X66.775Y5.065
G1X66.259Y5.026
G1X65.861Y5.049
G1X65.515Y5.119
G1X65.22Y5.235
G1X64.977Y5.398
G1X64.79Y5.594
G1X64.656Y5.805
; Layer C00 Pass 2 of 3
G1X64.575Y6.031
G1X64.548Y6.271
G1X64.579Y6.46
G1X64.672Y6.623
G1X64.738Y6.688
G1X64.812Y6.735
G1X64.893Y6.763
G1X64.982
G1X65.147Y6.744
G1X65.277Y6.659
G1X65.362Y6.538
G1X65.391Y6.401
G1X65.374Y6.306
G1X65.324Y6.178
G1X65.265Y6.011
G1X65.246Y5.879
G1X65.263Y5.749
G1X65.313Y5.628
G1X65.397Y5.516
G1X65.515Y5.414
G1X65.655Y5.33
G1X65.807Y5.27
G1X65.97Y5.234
G1X66.145Y5.222
G1X66.479Y5.266
G1X66.79Y5.396
G1X67.076Y5.612
G1X67.339Y5.915
G1X67.558Y6.259
G1X67.715Y6.597
G1X67.809Y6.93
G1X67.84Y7.259
G1Y7.382
G1X67.8Y7.505
G1X67.75Y7.628
G1X67.68Y7.749
G1X67.591Y7.856
G1X67.481Y7.932
G1X67.349Y7.977
G1X67.194Y7.992
G1X67.081Y7.981
G1X66.954Y7.948
G1X66.812Y7.893
G1X66.657Y7.817
G1X66.552Y7.762
G1X66.469Y7.724
G1X66.41Y7.7
G1X66.373
G1X66.299Y7.718
G1X66.274Y7.796
G1X66.292Y7.845
G1X66.344Y7.894
G1X66.431Y7.943
G1X66.553Y7.992
G1X66.845Y8.132
G1X67.106Y8.265
G1X67.338Y8.393
G1X67.539Y8.516
G1X67.711Y8.632
G1X67.853Y8.743
G1X67.965Y8.849
G1X68.047Y8.948
G1X68.164Y9.142
G1X68.248Y9.332
G1X68.299Y9.517
G1X68.316Y9.698
G1X68.302Y9.883
G1X68.26Y10.048
G1X68.191Y10.191
G1X68.093Y10.313
G1X67.971Y10.41
G1X67.826Y10.479
G1X67.658Y10.521
G1X67.468Y10.535
G1X67.229Y10.513
G1X67.008Y10.447
G1X66.805Y10.337
G1X66.621Y10.183
G1X66.469Y10.002
G1X66.361Y9.805
G1X66.296Y9.591
G1X66.274Y9.362
G1X66.295Y9.171
G1X66.357Y9.031
G1X66.459Y8.95
G1X66.6Y8.922
G1X66.701Y8.935
G1X66.808Y8.974
G1X66.921Y9.039
G1X67.164Y9.226
G1X67.241Y9.258
G1X67.303Y9.239
G1X67.323Y9.181
G1X67.302Y9.097
G1X67.237Y9.005
G1X67.129Y8.906
G1X66.977Y8.798
G1X66.811Y8.701
G1X66.652Y8.632
G1X66.5Y8.59
G1X66.357Y8.576
G1X66.221Y8.589
G1X66.096Y8.628
G1X65.983Y8.693
G1X65.882Y8.783
G1X65.8Y8.892
G1X65.742Y9.009
G1X65.707Y9.133
G1X65.696Y9.264
G1X65.73Y9.554
G1X65.834Y9.824
G1X66.007Y10.076
G1X66.249Y10.307
G1X66.544Y10.502
G1X66.871Y10.641
G1X67.231Y10.724
G1X67.623Y10.752
G1X67.943Y10.73
G1X68.225Y10.665
G1X68.47Y10.557
G1X68.677Y10.406
G1X68.845Y10.226
G1X68.964Y10.034
G1X69.036Y9.828
G1X69.06Y9.61
G1X69.043Y9.43
G1X68.991Y9.253
G1X68.906Y9.079
G1X68.786Y8.907
G1X68.704Y8.821
G1X68.594Y8.733
G1X68.456Y8.643
G1X68.291Y8.552
G1X68.098Y8.458
G1X67.878Y8.363
G1X67.63Y8.267
G1X67.354Y8.168
G1X67.681Y8.143
G1X67.954Y8.074
G1X68.172Y7.96
G1X68.336Y7.801
G1X68.458Y7.619
G1X68.546Y7.428
G1X68.598Y7.228
G1X68.615Y7.021
G1X68.576Y6.652
G1X68.456Y6.3
G1X68.258Y5.965
G1X67.98Y5.646
G1X67.636Y5.375
G1X67.234Y5.181
G1X66.775Y5.065
G1X66.259Y5.026
G1X65.861Y5.049
G1X65.515Y5.119
G1X65.22Y5.235
G1X64.977Y5.398
G1X64.79Y5.594
G1X64.656Y5.805
; Layer C00 Pass 3 of 3
G1X64.575Y6.031
G1X64.548Y6.271
G1X64.579Y6.46
G1X64.672Y6.623
G1X64.738Y6.688
G1X64.812Y6.735
G1X64.893Y6.763
G1X64.982
G1X65.147Y6.744
G1X65.277Y6.659
G1X65.362Y6.538
G1X65.391Y6.401
G1X65.374Y6.306
G1X65.324Y6.178
G1X65.265Y6.011
G1X65.246Y5.879
G1X65.263Y5.749
G1X65.313Y5.628
G1X65.397Y5.516
G1X65.515Y5.414
G1X65.655Y5.33
G1X65.807Y5.27
G1X65.97Y5.234
G1X66.145Y5.222
G1X66.479Y5.266
G1X66.79Y5.396
G1X67.076Y5.612
G1X67.339Y5.915
G1X67.558Y6.259
G1X67.715Y6.597
G1X67.809Y6.93
G1X67.84Y7.259
G1Y7.382
G1X67.8Y7.505
G1X67.75Y7.628
G1X67.68Y7.749
G1X67.591Y7.856
G1X67.481Y7.932
G1X67.349Y7.977
G1X67.194Y7.992
G1X67.081Y7.981
G1X66.954Y7.948
G1X66.812Y7.893
G1X66.657Y7.817
G1X66.552Y7.762
G1X66.469Y7.724
G1X66.41Y7.7
G1X66.373
G1X66.299Y7.718
G1X66.274Y7.796
G1X66.292Y7.845
G1X66.344Y7.894
G1X66.431Y7.943
G1X66.553Y7.992
G1X66.845Y8.132
G1X67.106Y8.265
G1X67.338Y8.393
G1X67.539Y8.516
G1X67.711Y8.632
G1X67.853Y8.743
G1X67.965Y8.849
G1X68.047Y8.948
G1X68.164Y9.142
G1X68.248Y9.332
G1X68.299Y9.517
G1X68.316Y9.698
G1X68.302Y9.883
G1X68.26Y10.048
G1X68.191Y10.191
G1X68.093Y10.313
G1X67.971Y10.41
G1X67.826Y10.479
G1X67.658Y10.521
G1X67.468Y10.535
G1X67.229Y10.513
G1X67.008Y10.447
G1X66.805Y10.337
G1X66.621Y10.183
G1X66.469Y10.002
G1X66.361Y9.805
G1X66.296Y9.591
G1X66.274Y9.362
G1X66.295Y9.171
G1X66.357Y9.031
G1X66.459Y8.95
G1X66.6Y8.922
G1X66.701Y8.935
G1X66.808Y8.974
G1X66.921Y9.039
G1X67.164Y9.226
G1X67.241Y9.258
G1X67.303Y9.239
G1X67.323Y9.181
G1X67.302Y9.097
G1X67.237Y9.005
G1X67.129Y8.906
G1X66.977Y8.798
G1X66.811Y8.701
G1X66.652Y8.632
G1X66.5Y8.59
G1X66.357Y8.576
G1X66.221Y8.589
G1X66.096Y8.628
G1X65.983Y8.693
G1X65.882Y8.783
G1X65.8Y8.892
G1X65.742Y9.009
G1X65.707Y9.133
G1X65.696Y9.264
G1X65.73Y9.554
G1X65.834Y9.824
G1X66.007Y10.076
G1X66.249Y10.307
G1X66.544Y10.502
G1X66.871Y10.641
G1X67.231Y10.724
G1X67.623Y10.752
G1X67.943Y10.73
G1X68.225Y10.665
G1X68.47Y10.557
G1X68.677Y10.406
G1X68.845Y10.226
G1X68.964Y10.034
G1X69.036Y9.828
G1X69.06Y9.61
G1X69.043Y9.43
G1X68.991Y9.253
G1X68.906Y9.079
G1X68.786Y8.907
G1X68.704Y8.821
G1X68.594Y8.733
G1X68.456Y8.643
G1X68.291Y8.552
G1X68.098Y8.458
G1X67.878Y8.363
G1X67.63Y8.267
G1X67.354Y8.168
G1X67.681Y8.143
G1X67.954Y8.074
G1X68.172Y7.96
G1X68.336Y7.801
G1X68.458Y7.619
G1X68.546Y7.428
G1X68.598Y7.228
G1X68.615Y7.021
G1X68.576Y6.652
G1X68.456Y6.3
G1X68.258Y5.965
G1X67.98Y5.646
G1X67.636Y5.375
G1X67.234Y5.181
G1X66.775Y5.065
G1X66.259Y5.026
G1X65.861Y5.049
G1X65.515Y5.119
G1X65.22Y5.235
G1X64.977Y5.398
G1X64.79Y5.594
G1X64.656Y5.805
G0X69.949Y5.171
; Layer C00 Pass 1 of 3
G1X69.964Y5.222
G1X70.837Y7.749
G1X70.987Y8.176
G1X71.093Y8.532
G1X71.157Y8.817
G1X71.178Y9.031
G1Y9.099
G1X71.142Y9.147
G1X71.097Y9.176
G1X71.034Y9.186
G1X70.959Y9.17
G1X70.865Y9.121
G1X70.75Y9.041
G1X70.615Y8.928
G1X70.356Y8.681
G1X70.155Y8.447
G1X70.034Y8.315
G1X69.938Y8.271
G1X69.88Y8.292
G1X69.861Y8.354
G1X69.896Y8.46
G1X70Y8.612
G1X70.175Y8.811
G1X70.419Y9.057
G1X70.698Y9.292
G1X70.97Y9.46
G1X71.238Y9.561
G1X71.499Y9.594
G1X71.645Y9.565
G1X71.752Y9.475
G1X71.818Y9.354
G1X71.84Y9.227
G1Y9.159
G1X71.823Y9.058
G1X71.803Y8.923
G1X71.774Y8.756
G1X71.692Y8.321
G1X71.576Y7.755
G1X71.846Y8.183
G1X72.107Y8.554
G1X72.36Y8.868
G1X72.605Y9.124
G1X72.841Y9.325
G1X73.069Y9.469
G1X73.288Y9.555
G1X73.499Y9.584
G1X73.613Y9.573
G1X73.713Y9.54
G1X73.799Y9.485
G1X73.871Y9.408
G1X73.968Y9.221
G1X74Y9
G1X73.978Y8.7
G1X73.912Y8.39
G1X73.855Y8.195
G1X73.765Y7.92
G1X73.643Y7.565
G1X73.381Y6.827
G1X73.287Y6.557
G1X73.208Y6.32
G1X73.143Y6.115
G1X73.093Y5.944
G1X73.057Y5.805
G1X73.036Y5.699
G1Y5.626
G1Y5.551
G1X73.066Y5.498
G1X73.113Y5.466
G1X73.178Y5.455
G1X73.255Y5.469
G1X73.349Y5.512
G1X73.461Y5.583
G1X73.592Y5.682
G1X73.839Y5.912
G1X74.01Y6.137
G1X74.075Y6.239
G1X74.133Y6.312
G1X74.186Y6.355
G1X74.233Y6.37
G1X74.298Y6.344
G1X74.32Y6.266
G1X74.287Y6.141
G1X74.187Y5.978
G1X74.021Y5.777
G1X73.788Y5.538
G1X73.527Y5.314
G1X73.271Y5.154
G1X73.021Y5.058
G1X72.775Y5.026
G1X72.567Y5.051
G1X72.419Y5.126
G1X72.33Y5.25
G1X72.3Y5.424
G1X72.312Y5.552
G1X72.347Y5.729
G1X72.407Y5.955
G1X72.49Y6.23
G1X72.597Y6.554
G1X72.727Y6.928
G1X72.881Y7.35
G1X73.059Y7.822
G1X73.188Y8.18
G1X73.28Y8.491
G1X73.336Y8.754
G1X73.354Y8.969
G1X73.342Y9.072
G1X73.308Y9.145
G1X73.253Y9.191
G1X73.173Y9.207
G1X73.079Y9.182
G1X72.95Y9.107
G1X72.787Y8.983
G1X72.589Y8.809
G1X72.37Y8.574
G1X72.136Y8.262
G1X71.887Y7.874
G1X71.623Y7.408
G1X71.364Y6.915
G1X71.129Y6.442
G1X70.919Y5.99
G1X70.637Y5.33
G1X70.558Y5.167
G1X70.498Y5.069
G1X70.455Y5.036
G1X70.233
G1X70.075Y5.07
G1X69.98Y5.112
G1X69.949Y5.171
; Layer C00 Pass 2 of 3
G1X69.964Y5.222
G1X70.837Y7.749
G1X70.987Y8.176
G1X71.093Y8.532
G1X71.157Y8.817
G1X71.178Y9.031
G1Y9.099
G1X71.142Y9.147
G1X71.097Y9.176
G1X71.034Y9.186
G1X70.959Y9.17
G1X70.865Y9.121
G1X70.75Y9.041
G1X70.615Y8.928
G1X70.356Y8.681
G1X70.155Y8.447
G1X70.034Y8.315
G1X69.938Y8.271
G1X69.88Y8.292
G1X69.861Y8.354
G1X69.896Y8.46
G1X70Y8.612
G1X70.175Y8.811
G1X70.419Y9.057
G1X70.698Y9.292
G1X70.97Y9.46
G1X71.238Y9.561
G1X71.499Y9.594
G1X71.645Y9.565
G1X71.752Y9.475
G1X71.818Y9.354
G1X71.84Y9.227
G1Y9.159
G1X71.823Y9.058
G1X71.803Y8.923
G1X71.774Y8.756
G1X71.692Y8.321
G1X71.576Y7.755
G1X71.846Y8.183
G1X72.107Y8.554
G1X72.36Y8.868
G1X72.605Y9.124
G1X72.841Y9.325
G1X73.069Y9.469
G1X73.288Y9.555
G1X73.499Y9.584
G1X73.613Y9.573
G1X73.713Y9.54
G1X73.799Y9.485
G1X73.871Y9.408
G1X73.968Y9.221
G1X74Y9
G1X73.978Y8.7
G1X73.912Y8.39
G1X73.855Y8.195
G1X73.765Y7.92
G1X73.643Y7.565
G1X73.381Y6.827
G1X73.287Y6.557
G1X73.208Y6.32
G1X73.143Y6.115
G1X73.093Y5.944
G1X73.057Y5.805
G1X73.036Y5.699
G1Y5.626
G1Y5.551
G1X73.066Y5.498
G1X73.113Y5.466
G1X73.178Y5.455
G1X73.255Y5.469
G1X73.349Y5.512
G1X73.461Y5.583
G1X73.592Y5.682
G1X73.839Y5.912
G1X74.01Y6.137
G1X74.075Y6.239
G1X74.133Y6.312
G1X74.186Y6.355
G1X74.233Y6.37
G1X74.298Y6.344
G1X74.32Y6.266
G1X74.287Y6.141
G1X74.187Y5.978
G1X74.021Y5.777
G1X73.788Y5.538
G1X73.527Y5.314
G1X73.271Y5.154
G1X73.021Y5.058
G1X72.775Y5.026
G1X72.567Y5.051
G1X72.419Y5.126
G1X72.33Y5.25
G1X72.3Y5.424
G1X72.312Y5.552
G1X72.347Y5.729
G1X72.407Y5.955
G1X72.49Y6.23
G1X72.597Y6.554
G1X72.727Y6.928
G1X72.881Y7.35
G1X73.059Y7.822
G1X73.188Y8.18
G1X73.28Y8.491
G1X73.336Y8.754
G1X73.354Y8.969
G1X73.342Y9.072
G1X73.308Y9.145
G1X73.253Y9.191
G1X73.173Y9.207
G1X73.079Y9.182
G1X72.95Y9.107
G1X72.787Y8.983
G1X72.589Y8.809
G1X72.37Y8.574
G1X72.136Y8.262
G1X71.887Y7.874
G1X71.623Y7.408
G1X71.364Y6.915
G1X71.129Y6.442
G1X70.919Y5.99
G1X70.637Y5.33
G1X70.558Y5.167
G1X70.498Y5.069
G1X70.455Y5.036
G1X70.233
G1X70.075Y5.07
G1X69.98Y5.112
G1X69.949Y5.171
; Layer C00 Pass 3 of 3
G1X69.964Y5.222
G1X70.837Y7.749
G1X70.987Y8.176
G1X71.093Y8.532
G1X71.157Y8.817
G1X71.178Y9.031
G1Y9.099
G1X71.142Y9.147
G1X71.097Y9.176
G1X71.034Y9.186
G1X70.959Y9.17
G1X70.865Y9.121
G1X70.75Y9.041
G1X70.615Y8.928
G1X70.356Y8.681
G1X70.155Y8.447
G1X70.034Y8.315
G1X69.938Y8.271
G1X69.88Y8.292
G1X69.861Y8.354
G1X69.896Y8.46
G1X70Y8.612
G1X70.175Y8.811
G1X70.419Y9.057
G1X70.698Y9.292
G1X70.97Y9.46
G1X71.238Y9.561
G1X71.499Y9.594
G1X71.645Y9.565
G1X71.752Y9.475
G1X71.818Y9.354
G1X71.84Y9.227
G1Y9.159
G1X71.823Y9.058
G1X71.803Y8.923
G1X71.774Y8.756
G1X71.692Y8.321
G1X71.576Y7.755
G1X71.846Y8.183
G1X72.107Y8.554
G1X72.36Y8.868
G1X72.605Y9.124
G1X72.841Y9.325
G1X73.069Y9.469
G1X73.288Y9.555
G1X73.499Y9.584
G1X73.613Y9.573
G1X73.713Y9.54
G1X73.799Y9.485
G1X73.871Y9.408
G1X73.968Y9.221
G1X74Y9
G1X73.978Y8.7
G1X73.912Y8.39
G1X73.855Y8.195
G1X73.765Y7.92
G1X73.643Y7.565
G1X73.381Y6.827
G1X73.287Y6.557
G1X73.208Y6.32
G1X73.143Y6.115
G1X73.093Y5.944
G1X73.057Y5.805
G1X73.036Y5.699
G1Y5.626
G1Y5.551
G1X73.066Y5.498
G1X73.113Y5.466
G1X73.178Y5.455
G1X73.255Y5.469
G1X73.349Y5.512
G1X73.461Y5.583
G1X73.592Y5.682
G1X73.839Y5.912
G1X74.01Y6.137
G1X74.075Y6.239
G1X74.133Y6.312
G1X74.186Y6.355
G1X74.233Y6.37
G1X74.298Y6.344
G1X74.32Y6.266
G1X74.287Y6.141
G1X74.187Y5.978
G1X74.021Y5.777
G1X73.788Y5.538
G1X73.527Y5.314
G1X73.271Y5.154
G1X73.021Y5.058
G1X72.775Y5.026
G1X72.567Y5.051
G1X72.419Y5.126
G1X72.33Y5.25
G1X72.3Y5.424
G1X72.312Y5.552
G1X72.347Y5.729
G1X72.407Y5.955
G1X72.49Y6.23
G1X72.597Y6.554
G1X72.727Y6.928
G1X72.881Y7.35
G1X73.059Y7.822
G1X73.188Y8.18
G1X73.28Y8.491
G1X73.336Y8.754
G1X73.354Y8.969
G1X73.342Y9.072
G1X73.308Y9.145
G1X73.253Y9.191
G1X73.173Y9.207
G1X73.079Y9.182
G1X72.95Y9.107
G1X72.787Y8.983
G1X72.589Y8.809
G1X72.37Y8.574
G1X72.136Y8.262
G1X71.887Y7.874
G1X71.623Y7.408
G1X71.364Y6.915
G1X71.129Y6.442
G1X70.919Y5.99
G1X70.637Y5.33
G1X70.558Y5.167
G1X70.498Y5.069
G1X70.455Y5.036
G1X70.233
G1X70.075Y5.07
G1X69.98Y5.112
G1X69.949Y5.171
G0X76.053Y6.098
; Layer C00 Pass 1 of 3
G1X76.158Y5.86
G1X76.305Y5.646
G1X76.485Y5.47
G1X76.686Y5.344
G1X76.906Y5.268
G1X77.147Y5.243
G1X77.451Y5.281
G1X77.721Y5.394
G1X77.957Y5.583
G1X78.16Y5.848
G1X78.325Y6.16
G1X78.443Y6.487
G1X78.514Y6.829
G1X78.537Y7.186
G1X78.519Y7.438
G1X78.465Y7.668
G1X78.374Y7.875
G1X78.248Y8.059
G1X78.091Y8.211
G1X77.908Y8.319
G1X77.7Y8.384
G1X77.467Y8.406
G1X77.175Y8.376
G1X76.902Y8.286
G1X76.648Y8.135
G1X76.413Y7.925
G1X76.219Y7.667
G1X76.08Y7.368
G1X75.997Y7.029
G1X75.969Y6.649
G1X75.99Y6.361
G1X76.053Y6.098
; Layer C00 Pass 2 of 3
G1X76.158Y5.86
G1X76.305Y5.646
G1X76.485Y5.47
G1X76.686Y5.344
G1X76.906Y5.268
G1X77.147Y5.243
G1X77.451Y5.281
G1X77.721Y5.394
G1X77.957Y5.583
G1X78.16Y5.848
G1X78.325Y6.16
G1X78.443Y6.487
G1X78.514Y6.829
G1X78.537Y7.186
G1X78.519Y7.438
G1X78.465Y7.668
G1X78.374Y7.875
G1X78.248Y8.059
G1X78.091Y8.211
G1X77.908Y8.319
G1X77.7Y8.384
G1X77.467Y8.406
G1X77.175Y8.376
G1X76.902Y8.286
G1X76.648Y8.135
G1X76.413Y7.925
G1X76.219Y7.667
G1X76.08Y7.368
G1X75.997Y7.029
G1X75.969Y6.649
G1X75.99Y6.361
G1X76.053Y6.098
; Layer C00 Pass 3 of 3
G1X76.158Y5.86
G1X76.305Y5.646
G1X76.485Y5.47
G1X76.686Y5.344
G1X76.906Y5.268
G1X77.147Y5.243
G1X77.451Y5.281
G1X77.721Y5.394
G1X77.957Y5.583
G1X78.16Y5.848
G1X78.325Y6.16
G1X78.443Y6.487
G1X78.514Y6.829
G1X78.537Y7.186
G1X78.519Y7.438
G1X78.465Y7.668
G1X78.374Y7.875
G1X78.248Y8.059
G1X78.091Y8.211
G1X77.908Y8.319
G1X77.7Y8.384
G1X77.467Y8.406
G1X77.175Y8.376
G1X76.902Y8.286
G1X76.648Y8.135
G1X76.413Y7.925
G1X76.219Y7.667
G1X76.08Y7.368
G1X75.997Y7.029
G1X75.969Y6.649
G1X75.99Y6.361
G1X76.053Y6.098
G0X75.537Y5.958
; Layer C00 Pass 1 of 3
G1X75.372Y6.324
G1X75.273Y6.736
G1X75.24Y7.191
G1X75.255Y7.51
G1X75.298Y7.824
G1X75.37Y8.134
G1X75.47Y8.439
G1X75.6Y8.741
G1X75.758Y9.038
G1X75.944Y9.331
G1X76.16Y9.62
G1X76.4Y9.89
G1X76.656Y10.124
G1X76.929Y10.322
G1X77.218Y10.484
G1X77.524Y10.61
G1X77.847Y10.7
G1X78.186Y10.754
G1X78.542Y10.773
G1X78.863Y10.754
G1X79.148Y10.698
G1X79.398Y10.604
G1X79.612Y10.473
G1X79.786Y10.315
G1X79.91Y10.139
G1X79.985Y9.948
G1X80.01Y9.739
G1X79.983Y9.511
G1X79.903Y9.348
G1X79.769Y9.25
G1X79.581Y9.217
G1X79.426Y9.242
G1X79.302Y9.315
G1X79.221Y9.424
G1X79.193Y9.553
G1X79.21Y9.656
G1X79.315Y9.937
G1X79.333Y10.044
G1X79.318Y10.148
G1X79.275Y10.242
G1X79.202Y10.326
G1X79.1Y10.4
G1X78.981Y10.464
G1X78.854Y10.509
G1X78.72Y10.536
G1X78.579
G1X78.347
G1X78.116Y10.473
G1X77.887Y10.382
G1X77.659Y10.256
G1X77.441Y10.098
G1X77.236Y9.915
G1X77.045Y9.705
G1X76.868Y9.47
G1X76.701Y9.197
G1X76.536Y8.87
G1X76.373Y8.487
G1X76.212Y8.049
G1X76.548Y8.325
G1X76.907Y8.522
G1X77.287Y8.64
G1X77.69Y8.68
G1X78.044Y8.652
G1X78.364Y8.567
G1X78.649Y8.427
G1X78.899Y8.23
G1X79.102Y7.988
G1X79.248Y7.713
G1X79.335Y7.404
G1X79.364Y7.062
G1X79.323Y6.671
G1X79.199Y6.305
G1X78.992Y5.963
G1X78.703Y5.646
G1X78.357Y5.382
G1X77.983Y5.193
G1X77.58Y5.079
G1X77.147Y5.042
G1X76.741Y5.079
G1X76.376Y5.19
G1X76.051Y5.376
G1X75.767Y5.636
G1X75.537Y5.958
; Layer C00 Pass 2 of 3
G1X75.372Y6.324
G1X75.273Y6.736
G1X75.24Y7.191
G1X75.255Y7.51
G1X75.298Y7.824
G1X75.37Y8.134
G1X75.47Y8.439
G1X75.6Y8.741
G1X75.758Y9.038
G1X75.944Y9.331
G1X76.16Y9.62
G1X76.4Y9.89
G1X76.656Y10.124
G1X76.929Y10.322
G1X77.218Y10.484
G1X77.524Y10.61
G1X77.847Y10.7
G1X78.186Y10.754
G1X78.542Y10.773
G1X78.863Y10.754
G1X79.148Y10.698
G1X79.398Y10.604
G1X79.612Y10.473
G1X79.786Y10.315
G1X79.91Y10.139
G1X79.985Y9.948
G1X80.01Y9.739
G1X79.983Y9.511
G1X79.903Y9.348
G1X79.769Y9.25
G1X79.581Y9.217
G1X79.426Y9.242
G1X79.302Y9.315
G1X79.221Y9.424
G1X79.193Y9.553
G1X79.21Y9.656
G1X79.315Y9.937
G1X79.333Y10.044
G1X79.318Y10.148
G1X79.275Y10.242
G1X79.202Y10.326
G1X79.1Y10.4
G1X78.981Y10.464
G1X78.854Y10.509
G1X78.72Y10.536
G1X78.579
G1X78.347
G1X78.116Y10.473
G1X77.887Y10.382
G1X77.659Y10.256
G1X77.441Y10.098
G1X77.236Y9.915
G1X77.045Y9.705
G1X76.868Y9.47
G1X76.701Y9.197
G1X76.536Y8.87
G1X76.373Y8.487
G1X76.212Y8.049
G1X76.548Y8.325
G1X76.907Y8.522
G1X77.287Y8.64
G1X77.69Y8.68
G1X78.044Y8.652
G1X78.364Y8.567
G1X78.649Y8.427
G1X78.899Y8.23
G1X79.102Y7.988
G1X79.248Y7.713
G1X79.335Y7.404
G1X79.364Y7.062
G1X79.323Y6.671
G1X79.199Y6.305
G1X78.992Y5.963
G1X78.703Y5.646
G1X78.357Y5.382
G1X77.983Y5.193
G1X77.58Y5.079
G1X77.147Y5.042
G1X76.741Y5.079
G1X76.376Y5.19
G1X76.051Y5.376
G1X75.767Y5.636
G1X75.537Y5.958
; Layer C00 Pass 3 of 3
G1X75.372Y6.324
G1X75.273Y6.736
G1X75.24Y7.191
G1X75.255Y7.51
G1X75.298Y7.824
G1X75.37Y8.134
G1X75.47Y8.439
G1X75.6Y8.741
G1X75.758Y9.038
G1X75.944Y9.331
G1X76.16Y9.62
G1X76.4Y9.89
G1X76.656Y10.124
G1X76.929Y10.322
G1X77.218Y10.484
G1X77.524Y10.61
G1X77.847Y10.7
G1X78.186Y10.754
G1X78.542Y10.773
G1X78.863Y10.754
G1X79.148Y10.698
G1X79.398Y10.604
G1X79.612Y10.473
G1X79.786Y10.315
G1X79.91Y10.139
G1X79.985Y9.948
G1X80.01Y9.739
G1X79.983Y9.511
G1X79.903Y9.348
G1X79.769Y9.25
G1X79.581Y9.217
G1X79.426Y9.242
G1X79.302Y9.315
G1X79.221Y9.424
G1X79.193Y9.553
G1X79.21Y9.656
G1X79.315Y9.937
G1X79.333Y10.044
G1X79.318Y10.148
G1X79.275Y10.242
G1X79.202Y10.326
G1X79.1Y10.4
G1X78.981Y10.464
G1X78.854Y10.509
G1X78.72Y10.536
G1X78.579
G1X78.347
G1X78.116Y10.473
G1X77.887Y10.382
G1X77.659Y10.256
G1X77.441Y10.098
G1X77.236Y9.915
G1X77.045Y9.705
G1X76.868Y9.47
G1X76.701Y9.197
G1X76.536Y8.87
G1X76.373Y8.487
G1X76.212Y8.049
G1X76.548Y8.325
G1X76.907Y8.522
G1X77.287Y8.64
G1X77.69Y8.68
G1X78.044Y8.652
G1X78.364Y8.567
G1X78.649Y8.427
G1X78.899Y8.23
G1X79.102Y7.988
G1X79.248Y7.713
G1X79.335Y7.404
G1X79.364Y7.062
G1X79.323Y6.671
G1X79.199Y6.305
G1X78.992Y5.963
G1X78.703Y5.646
G1X78.357Y5.382
G1X77.983Y5.193
G1X77.58Y5.079
G1X77.147Y5.042
G1X76.741Y5.079
G1X76.376Y5.19
G1X76.051Y5.376
G1X75.767Y5.636
G1X75.537Y5.958
G0X82.501Y8.835
; Layer C00 Pass 1 of 3
G1X82.759Y8.823
G1X82.945
G1X83.367
G1X83.735Y8.86
G1X84.047Y8.912
G1X84.304Y8.984
G1X84.525Y9.086
G1X84.72Y9.224
G1X84.891Y9.398
G1X85.038Y9.61
G1X85.156Y9.844
G1X85.24Y10.08
G1X85.29Y10.319
G1X85.307Y10.561
G1X85.284Y10.79
G1X85.216Y10.997
G1X85.103Y11.183
G1X84.945Y11.346
G1X84.748Y11.48
G1X84.519Y11.575
G1X84.257Y11.632
G1X83.963Y11.651
G1X83.616Y11.638
G1X83.235Y11.599
G1X83.221Y11.544
G1X83.184Y11.43
G1X83.125Y11.257
G1X83.043Y11.026
G1X82.974Y10.817
G1X82.896Y10.554
G1X82.809Y10.236
G1X82.713Y9.863
G1X82.624Y9.5
G1X82.559Y9.208
G1X82.518Y8.986
G1X82.501Y8.835
; Layer C00 Pass 2 of 3
G1X82.759Y8.823
G1X82.945
G1X83.367
G1X83.735Y8.86
G1X84.047Y8.912
G1X84.304Y8.984
G1X84.525Y9.086
G1X84.72Y9.224
G1X84.891Y9.398
G1X85.038Y9.61
G1X85.156Y9.844
G1X85.24Y10.08
G1X85.29Y10.319
G1X85.307Y10.561
G1X85.284Y10.79
G1X85.216Y10.997
G1X85.103Y11.183
G1X84.945Y11.346
G1X84.748Y11.48
G1X84.519Y11.575
G1X84.257Y11.632
G1X83.963Y11.651
G1X83.616Y11.638
G1X83.235Y11.599
G1X83.221Y11.544
G1X83.184Y11.43
G1X83.125Y11.257
G1X83.043Y11.026
G1X82.974Y10.817
G1X82.896Y10.554
G1X82.809Y10.236
G1X82.713Y9.863
G1X82.624Y9.5
G1X82.559Y9.208
G1X82.518Y8.986
G1X82.501Y8.835
; Layer C00 Pass 3 of 3
G1X82.759Y8.823
G1X82.945
G1X83.367
G1X83.735Y8.86
G1X84.047Y8.912
G1X84.304Y8.984
G1X84.525Y9.086
G1X84.72Y9.224
G1X84.891Y9.398
G1X85.038Y9.61
G1X85.156Y9.844
G1X85.24Y10.08
G1X85.29Y10.319
G1X85.307Y10.561
G1X85.284Y10.79
G1X85.216Y10.997
G1X85.103Y11.183
G1X84.945Y11.346
G1X84.748Y11.48
G1X84.519Y11.575
G1X84.257Y11.632
G1X83.963Y11.651
G1X83.616Y11.638
G1X83.235Y11.599
G1X83.221Y11.544
G1X83.184Y11.43
G1X83.125Y11.257
G1X83.043Y11.026
G1X82.974Y10.817
G1X82.896Y10.554
G1X82.809Y10.236
G1X82.713Y9.863
G1X82.624Y9.5
G1X82.559Y9.208
G1X82.518Y8.986
G1X82.501Y8.835
G0X82.449Y8.602
; Layer C00 Pass 1 of 3
G1X82.371Y8.389
G1X82.277Y8.092
G1X82.167Y7.71
G1X82.041Y7.243
G1X81.923Y6.778
G1X81.839Y6.397
G1X81.789Y6.099
G1X81.772Y5.884
G1X81.784Y5.777
G1X81.819Y5.682
G1X81.878Y5.6
G1X81.961Y5.53
G1X82.067Y5.473
G1X82.197Y5.429
G1X82.35Y5.397
G1X82.527Y5.377
G1X82.643Y5.349
G1X82.682Y5.284
G1X82.67Y5.235
G1X82.634Y5.199
G1X82.574Y5.178
G1X82.49
G1X82.288
G1X81.989Y5.197
G1X81.838
G1X81.644Y5.208
G1X81.407
G1X80.843
G1X80.589
G1X80.363
G1X80.165Y5.197
G1X79.948
G1X79.843Y5.212
G1X79.808Y5.274
G1X79.822Y5.314
G1X79.864Y5.346
G1X79.933Y5.371
G1X80.289Y5.434
G1X80.465Y5.512
G1X80.587Y5.638
G1X80.687Y5.822
G1X80.713Y5.892
G1X80.746Y5.995
G1X80.788Y6.132
G1X80.837Y6.302
G1X80.958Y6.744
G1X81.111Y7.321
G1X81.705Y9.63
G1X81.818Y10.104
G1X81.899Y10.497
G1X81.947Y10.81
G1X81.963Y11.041
G1Y11.162
G1X81.926Y11.27
G1X81.879Y11.366
G1X81.813Y11.449
G1X81.723Y11.525
G1X81.596Y11.592
G1X81.434Y11.649
G1X81.235Y11.698
G1X81.142Y11.735
G1X81.111Y11.796
G1X81.14Y11.865
G1X81.23Y11.889
G1X81.386
G1X81.878Y11.858
G1X82.206
G1X84.02Y11.873
G1X84.325
G1X84.608Y11.847
G1X84.867Y11.814
G1X85.104Y11.769
G1X85.318Y11.71
G1X85.509Y11.638
G1X85.678Y11.553
G1X85.824Y11.455
G1X86.059Y11.228
G1X86.227Y10.97
G1X86.327Y10.682
G1X86.361Y10.364
G1X86.331Y10.054
G1X86.241Y9.765
G1X86.091Y9.496
G1X85.88Y9.248
G1X85.617Y9.029
G1X85.302Y8.849
G1X84.935Y8.706
G1X84.516Y8.602
G1X84.766Y8.431
G1X84.963Y8.257
G1X85.107Y8.082
G1X85.198Y7.904
G1X85.299Y7.541
G1X85.333Y7.165
G1Y6.986
G1X85.307Y6.809
G1X85.264Y6.484
G1X85.233Y6.224
G1X85.215Y6.027
G1Y5.894
G1X85.229Y5.774
G1X85.291Y5.672
G1X85.383Y5.606
G1X85.482Y5.584
G1X85.608Y5.602
G1X85.758Y5.657
G1X85.931Y5.747
G1X86.128Y5.874
G1X86.238Y5.946
G1X86.325Y5.998
G1X86.388Y6.029
G1X86.428
G1X86.482
G1X86.501Y5.961
G1X86.482Y5.914
G1X86.426Y5.85
G1X86.332Y5.77
G1X86.201Y5.672
G1X85.886Y5.465
G1X85.529Y5.269
G1X85.341Y5.185
G1X85.154Y5.126
G1X84.969Y5.09
G1X84.785Y5.078
G1X84.657
G1X84.538Y5.118
G1X84.427Y5.168
G1X84.325Y5.238
G1X84.241Y5.331
G1X84.182Y5.443
G1X84.146Y5.576
G1X84.134Y5.729
G1Y5.857
G1X84.157Y6.009
G1X84.186Y6.185
G1X84.227Y6.385
G1X84.316Y6.879
G1X84.346Y7.305
G1Y7.581
G1X84.313Y7.817
G1X84.273Y8.01
G1X84.216Y8.163
G1X84.148Y8.284
G1X84.07Y8.384
G1X83.985Y8.462
G1X83.891Y8.519
G1X83.768Y8.562
G1X83.592Y8.593
G1X83.363Y8.611
G1X83.08
G1X82.982
G1X82.449
; Layer C00 Pass 2 of 3
G1X82.371Y8.389
G1X82.277Y8.092
G1X82.167Y7.71
G1X82.041Y7.243
G1X81.923Y6.778
G1X81.839Y6.397
G1X81.789Y6.099
G1X81.772Y5.884
G1X81.784Y5.777
G1X81.819Y5.682
G1X81.878Y5.6
G1X81.961Y5.53
G1X82.067Y5.473
G1X82.197Y5.429
G1X82.35Y5.397
G1X82.527Y5.377
G1X82.643Y5.349
G1X82.682Y5.284
G1X82.67Y5.235
G1X82.634Y5.199
G1X82.574Y5.178
G1X82.49
G1X82.288
G1X81.989Y5.197
G1X81.838
G1X81.644Y5.208
G1X81.407
G1X80.843
G1X80.589
G1X80.363
G1X80.165Y5.197
G1X79.948
G1X79.843Y5.212
G1X79.808Y5.274
G1X79.822Y5.314
G1X79.864Y5.346
G1X79.933Y5.371
G1X80.289Y5.434
G1X80.465Y5.512
G1X80.587Y5.638
G1X80.687Y5.822
G1X80.713Y5.892
G1X80.746Y5.995
G1X80.788Y6.132
G1X80.837Y6.302
G1X80.958Y6.744
G1X81.111Y7.321
G1X81.705Y9.63
G1X81.818Y10.104
G1X81.899Y10.497
G1X81.947Y10.81
G1X81.963Y11.041
G1Y11.162
G1X81.926Y11.27
G1X81.879Y11.366
G1X81.813Y11.449
G1X81.723Y11.525
G1X81.596Y11.592
G1X81.434Y11.649
G1X81.235Y11.698
G1X81.142Y11.735
G1X81.111Y11.796
G1X81.14Y11.865
G1X81.23Y11.889
G1X81.386
G1X81.878Y11.858
G1X82.206
G1X84.02Y11.873
G1X84.325
G1X84.608Y11.847
G1X84.867Y11.814
G1X85.104Y11.769
G1X85.318Y11.71
G1X85.509Y11.638
G1X85.678Y11.553
G1X85.824Y11.455
G1X86.059Y11.228
G1X86.227Y10.97
G1X86.327Y10.682
G1X86.361Y10.364
G1X86.331Y10.054
G1X86.241Y9.765
G1X86.091Y9.496
G1X85.88Y9.248
G1X85.617Y9.029
G1X85.302Y8.849
G1X84.935Y8.706
G1X84.516Y8.602
G1X84.766Y8.431
G1X84.963Y8.257
G1X85.107Y8.082
G1X85.198Y7.904
G1X85.299Y7.541
G1X85.333Y7.165
G1Y6.986
G1X85.307Y6.809
G1X85.264Y6.484
G1X85.233Y6.224
G1X85.215Y6.027
G1Y5.894
G1X85.229Y5.774
G1X85.291Y5.672
G1X85.383Y5.606
G1X85.482Y5.584
G1X85.608Y5.602
G1X85.758Y5.657
G1X85.931Y5.747
G1X86.128Y5.874
G1X86.238Y5.946
G1X86.325Y5.998
G1X86.388Y6.029
G1X86.428
G1X86.482
G1X86.501Y5.961
G1X86.482Y5.914
G1X86.426Y5.85
G1X86.332Y5.77
G1X86.201Y5.672
G1X85.886Y5.465
G1X85.529Y5.269
G1X85.341Y5.185
G1X85.154Y5.126
G1X84.969Y5.09
G1X84.785Y5.078
G1X84.657
G1X84.538Y5.118
G1X84.427Y5.168
G1X84.325Y5.238
G1X84.241Y5.331
G1X84.182Y5.443
G1X84.146Y5.576
G1X84.134Y5.729
G1Y5.857
G1X84.157Y6.009
G1X84.186Y6.185
G1X84.227Y6.385
G1X84.316Y6.879
G1X84.346Y7.305
G1Y7.581
G1X84.313Y7.817
G1X84.273Y8.01
G1X84.216Y8.163
G1X84.148Y8.284
G1X84.07Y8.384
G1X83.985Y8.462
G1X83.891Y8.519
G1X83.768Y8.562
G1X83.592Y8.593
G1X83.363Y8.611
G1X83.08
G1X82.982
G1X82.449
; Layer C00 Pass 3 of 3
G1X82.371Y8.389
G1X82.277Y8.092
G1X82.167Y7.71
G1X82.041Y7.243
G1X81.923Y6.778
G1X81.839Y6.397
G1X81.789Y6.099
G1X81.772Y5.884
G1X81.784Y5.777
G1X81.819Y5.682
G1X81.878Y5.6
G1X81.961Y5.53
G1X82.067Y5.473
G1X82.197Y5.429
G1X82.35Y5.397
G1X82.527Y5.377
G1X82.643Y5.349
G1X82.682Y5.284
G1X82.67Y5.235
G1X82.634Y5.199
G1X82.574Y5.178
G1X82.49
G1X82.288
G1X81.989Y5.197
G1X81.838
G1X81.644Y5.208
G1X81.407
G1X80.843
G1X80.589
G1X80.363
G1X80.165Y5.197
G1X79.948
G1X79.843Y5.212
G1X79.808Y5.274
G1X79.822Y5.314
G1X79.864Y5.346
G1X79.933Y5.371
G1X80.289Y5.434
G1X80.465Y5.512
G1X80.587Y5.638
G1X80.687Y5.822
G1X80.713Y5.892
G1X80.746Y5.995
G1X80.788Y6.132
G1X80.837Y6.302
G1X80.958Y6.744
G1X81.111Y7.321
G1X81.705Y9.63
G1X81.818Y10.104
G1X81.899Y10.497
G1X81.947Y10.81
G1X81.963Y11.041
G1Y11.162
G1X81.926Y11.27
G1X81.879Y11.366
G1X81.813Y11.449
G1X81.723Y11.525
G1X81.596Y11.592
G1X81.434Y11.649
G1X81.235Y11.698
G1X81.142Y11.735
G1X81.111Y11.796
G1X81.14Y11.865
G1X81.23Y11.889
G1X81.386
G1X81.878Y11.858
G1X82.206
G1X84.02Y11.873
G1X84.325
G1X84.608Y11.847
G1X84.867Y11.814
G1X85.104Y11.769
G1X85.318Y11.71
G1X85.509Y11.638
G1X85.678Y11.553
G1X85.824Y11.455
G1X86.059Y11.228
G1X86.227Y10.97
G1X86.327Y10.682
G1X86.361Y10.364
G1X86.331Y10.054
G1X86.241Y9.765
G1X86.091Y9.496
G1X85.88Y9.248
G1X85.617Y9.029
G1X85.302Y8.849
G1X84.935Y8.706
G1X84.516Y8.602
G1X84.766Y8.431
G1X84.963Y8.257
G1X85.107Y8.082
G1X85.198Y7.904
G1X85.299Y7.541
G1X85.333Y7.165
G1Y6.986
G1X85.307Y6.809
G1X85.264Y6.484
G1X85.233Y6.224
G1X85.215Y6.027
G1Y5.894
G1X85.229Y5.774
G1X85.291Y5.672
G1X85.383Y5.606
G1X85.482Y5.584
G1X85.608Y5.602
G1X85.758Y5.657
G1X85.931Y5.747
G1X86.128Y5.874
G1X86.238Y5.946
G1X86.325Y5.998
G1X86.388Y6.029
G1X86.428
G1X86.482
G1X86.501Y5.961
G1X86.482Y5.914
G1X86.426Y5.85
G1X86.332Y5.77
G1X86.201Y5.672
G1X85.886Y5.465
G1X85.529Y5.269
G1X85.341Y5.185
G1X85.154Y5.126
G1X84.969Y5.09
G1X84.785Y5.078
G1X84.657
G1X84.538Y5.118
G1X84.427Y5.168
G1X84.325Y5.238
G1X84.241Y5.331
G1X84.182Y5.443
G1X84.146Y5.576
G1X84.134Y5.729
G1Y5.857
G1X84.157Y6.009
G1X84.186Y6.185
G1X84.227Y6.385
G1X84.316Y6.879
G1X84.346Y7.305
G1Y7.581
G1X84.313Y7.817
G1X84.273Y8.01
G1X84.216Y8.163
G1X84.148Y8.284
G1X84.07Y8.384
G1X83.985Y8.462
G1X83.891Y8.519
G1X83.768Y8.562
G1X83.592Y8.593
G1X83.363Y8.611
G1X83.08
G1X82.982
G1X82.449
G0X87.457Y7.538
; Layer C00 Pass 1 of 3
G1X88.008
G1X89.735
G1X90.201Y9.062
G1X90.332Y9.486
G1X90.531Y10.116
G1X90.328Y9.975
G1X90.074Y9.783
G1X89.767Y9.538
G1X89.409Y9.242
G1X88.998Y8.893
G1X88.536Y8.493
G1X88.022Y8.041
G1X87.457Y7.538
; Layer C00 Pass 2 of 3
G1X88.008
G1X89.735
G1X90.201Y9.062
G1X90.332Y9.486
G1X90.531Y10.116
G1X90.328Y9.975
G1X90.074Y9.783
G1X89.767Y9.538
G1X89.409Y9.242
G1X88.998Y8.893
G1X88.536Y8.493
G1X88.022Y8.041
G1X87.457Y7.538
; Layer C00 Pass 3 of 3
G1X88.008
G1X89.735
G1X90.201Y9.062
G1X90.332Y9.486
G1X90.531Y10.116
G1X90.328Y9.975
G1X90.074Y9.783
G1X89.767Y9.538
G1X89.409Y9.242
G1X88.998Y8.893
G1X88.536Y8.493
G1X88.022Y8.041
G1X87.457Y7.538
G0X87.272Y7.638
; Layer C00 Pass 1 of 3
G1X87.468Y7.809
G1X88.087Y8.364
G1X88.628Y8.846
G1X89.141Y9.289
G1X89.626Y9.694
G1X90.082Y10.059
G1X91.017Y10.783
G1X91.106Y10.806
G1X91.26
G1X91.323
G1X91.368Y10.792
G1X91.396Y10.764
G1Y10.726
G1Y10.655
G1X91.343Y10.49
G1X91.267Y10.232
G1X91.159Y9.88
G1X90.852Y8.896
G1X90.423Y7.538
G1X91.157
G1X91.288Y7.549
G1X91.407Y7.584
G1X91.515Y7.642
G1X91.611Y7.724
G1X91.759Y7.923
G1X91.839Y8.147
G1X91.877Y8.244
G1X91.942Y8.277
G1X92.023Y8.252
G1X92.051Y8.178
G1X92.031Y8.041
G1X91.973Y7.868
G1X91.518Y6.411
G1X91.463Y6.345
G1X91.41Y6.323
G1X91.344Y6.352
G1X91.322Y6.437
G1Y6.472
G1X91.332Y6.514
G1X91.359Y6.64
G1Y6.768
G1Y6.934
G1X91.301Y7.072
G1X91.226Y7.18
G1X91.126Y7.253
G1X90.996Y7.296
G1X90.826Y7.31
G1X90.361Y7.321
G1X90.051Y6.282
G1X89.981Y6.04
G1X89.958Y5.853
G1X89.989Y5.693
G1X90.082Y5.533
G1X90.159Y5.463
G1X90.26Y5.411
G1X90.386Y5.376
G1X90.638Y5.344
G1X90.711Y5.322
G1X90.754Y5.29
G1X90.769Y5.248
G1X90.756Y5.205
G1X90.719Y5.175
G1X90.656Y5.156
G1X90.567
G1X90.495
G1X90.392
G1X90.092Y5.181
G1X89.852Y5.197
G1X89.586
G1X89.349
G1X89.126Y5.186
G1X88.761Y5.163
G1X88.599
G1X88.467
G1X88.374Y5.18
G1X88.318Y5.211
G1X88.299Y5.253
G1X88.315Y5.297
G1X88.363Y5.33
G1X88.444Y5.351
G1X88.557Y5.362
G1X88.77Y5.393
G1X88.934Y5.465
G1X89.06Y5.579
G1X89.157Y5.724
G1X89.207Y5.846
G1X89.276Y6.047
G1X89.362Y6.326
G1X89.536Y6.924
G1X89.592Y7.11
G1X89.636Y7.242
G1X89.668Y7.321
G1X89.555
G1X87.074
G1X87.096Y7.411
G1X87.152Y7.538
G1X87.272Y7.638
; Layer C00 Pass 2 of 3
G1X87.468Y7.809
G1X88.087Y8.364
G1X88.628Y8.846
G1X89.141Y9.289
G1X89.626Y9.694
G1X90.082Y10.059
G1X91.017Y10.783
G1X91.106Y10.806
G1X91.26
G1X91.323
G1X91.368Y10.792
G1X91.396Y10.764
G1Y10.726
G1Y10.655
G1X91.343Y10.49
G1X91.267Y10.232
G1X91.159Y9.88
G1X90.852Y8.896
G1X90.423Y7.538
G1X91.157
G1X91.288Y7.549
G1X91.407Y7.584
G1X91.515Y7.642
G1X91.611Y7.724
G1X91.759Y7.923
G1X91.839Y8.147
G1X91.877Y8.244
G1X91.942Y8.277
G1X92.023Y8.252
G1X92.051Y8.178
G1X92.031Y8.041
G1X91.973Y7.868
G1X91.518Y6.411
G1X91.463Y6.345
G1X91.41Y6.323
G1X91.344Y6.352
G1X91.322Y6.437
G1Y6.472
G1X91.332Y6.514
G1X91.359Y6.64
G1Y6.768
G1Y6.934
G1X91.301Y7.072
G1X91.226Y7.18
G1X91.126Y7.253
G1X90.996Y7.296
G1X90.826Y7.31
G1X90.361Y7.321
G1X90.051Y6.282
G1X89.981Y6.04
G1X89.958Y5.853
G1X89.989Y5.693
G1X90.082Y5.533
G1X90.159Y5.463
G1X90.26Y5.411
G1X90.386Y5.376
G1X90.638Y5.344
G1X90.711Y5.322
G1X90.754Y5.29
G1X90.769Y5.248
G1X90.756Y5.205
G1X90.719Y5.175
G1X90.656Y5.156
G1X90.567
G1X90.495
G1X90.392
G1X90.092Y5.181
G1X89.852Y5.197
G1X89.586
G1X89.349
G1X89.126Y5.186
G1X88.761Y5.163
G1X88.599
G1X88.467
G1X88.374Y5.18
G1X88.318Y5.211
G1X88.299Y5.253
G1X88.315Y5.297
G1X88.363Y5.33
G1X88.444Y5.351
G1X88.557Y5.362
G1X88.77Y5.393
G1X88.934Y5.465
G1X89.06Y5.579
G1X89.157Y5.724
G1X89.207Y5.846
G1X89.276Y6.047
G1X89.362Y6.326
G1X89.536Y6.924
G1X89.592Y7.11
G1X89.636Y7.242
G1X89.668Y7.321
G1X89.555
G1X87.074
G1X87.096Y7.411
G1X87.152Y7.538
G1X87.272Y7.638
; Layer C00 Pass 3 of 3
G1X87.468Y7.809
G1X88.087Y8.364
G1X88.628Y8.846
G1X89.141Y9.289
G1X89.626Y9.694
G1X90.082Y10.059
G1X91.017Y10.783
G1X91.106Y10.806
G1X91.26
G1X91.323
G1X91.368Y10.792
G1X91.396Y10.764
G1Y10.726
G1Y10.655
G1X91.343Y10.49
G1X91.267Y10.232
G1X91.159Y9.88
G1X90.852Y8.896
G1X90.423Y7.538
G1X91.157
G1X91.288Y7.549
G1X91.407Y7.584
G1X91.515Y7.642
G1X91.611Y7.724
G1X91.759Y7.923
G1X91.839Y8.147
G1X91.877Y8.244
G1X91.942Y8.277
G1X92.023Y8.252
G1X92.051Y8.178
G1X92.031Y8.041
G1X91.973Y7.868
G1X91.518Y6.411
G1X91.463Y6.345
G1X91.41Y6.323
G1X91.344Y6.352
G1X91.322Y6.437
G1Y6.472
G1X91.332Y6.514
G1X91.359Y6.64
G1Y6.768
G1Y6.934
G1X91.301Y7.072
G1X91.226Y7.18
G1X91.126Y7.253
G1X90.996Y7.296
G1X90.826Y7.31
G1X90.361Y7.321
G1X90.051Y6.282
G1X89.981Y6.04
G1X89.958Y5.853
G1X89.989Y5.693
G1X90.082Y5.533
G1X90.159Y5.463
G1X90.26Y5.411
G1X90.386Y5.376
G1X90.638Y5.344
G1X90.711Y5.322
G1X90.754Y5.29
G1X90.769Y5.248
G1X90.756Y5.205
G1X90.719Y5.175
G1X90.656Y5.156
G1X90.567
G1X90.495
G1X90.392
G1X90.092Y5.181
G1X89.852Y5.197
G1X89.586
G1X89.349
G1X89.126Y5.186
G1X88.761Y5.163
G1X88.599
G1X88.467
G1X88.374Y5.18
G1X88.318Y5.211
G1X88.299Y5.253
G1X88.315Y5.297
G1X88.363Y5.33
G1X88.444Y5.351
G1X88.557Y5.362
G1X88.77Y5.393
G1X88.934Y5.465
G1X89.06Y5.579
G1X89.157Y5.724
G1X89.207Y5.846
G1X89.276Y6.047
G1X89.362Y6.326
G1X89.536Y6.924
G1X89.592Y7.11
G1X89.636Y7.242
G1X89.668Y7.321
G1X89.555
G1X87.074
G1X87.096Y7.411
G1X87.152Y7.538
G1X87.272Y7.638
G0X92.535Y8.461
; Layer C00 Pass 1 of 3
G1X92.51Y8.612
G1X92.529Y8.78
G1X92.583Y8.938
G1X92.673Y9.085
G1X92.8Y9.222
G1X92.948Y9.338
G1X93.1Y9.42
G1X93.253Y9.469
G1X93.41Y9.486
G1X93.633Y9.448
G1X93.901Y9.336
G1X94.09Y9.248
G1X94.258Y9.185
G1X94.407Y9.147
G1X94.536Y9.134
G1X94.61Y9.148
G1X94.68Y9.187
G1X94.746Y9.254
G1X94.81Y9.346
G1X94.869Y9.437
G1X94.922Y9.501
G1X94.97Y9.54
G1X95.012Y9.553
G1X95.059Y9.541
G1X95.11Y9.506
G1X95.149Y9.463
G1X95.161Y9.413
G1X95.142Y9.341
G1X95.083Y9.249
G1X94.984Y9.137
G1X94.846Y9.005
G1X94.676Y8.81
G1X94.513Y8.544
G1X94.356Y8.208
G1X94.205Y7.801
G1X94.079Y7.377
G1X93.988Y6.985
G1X93.934Y6.623
G1X93.916Y6.292
G1Y6.103
G1X93.938Y5.938
G1X93.966Y5.798
G1X94.004Y5.682
G1X94.056Y5.594
G1X94.118Y5.531
G1X94.19Y5.493
G1X94.273Y5.481
G1X94.428Y5.508
G1X94.609Y5.588
G1X94.815Y5.722
G1X95.048Y5.91
G1X95.283Y6.14
G1X95.497Y6.396
G1X95.691Y6.677
G1X95.864Y6.985
G1X96.007Y7.293
G1X96.108Y7.578
G1X96.17Y7.838
G1X96.19Y8.075
G1X96.176Y8.215
G1X96.134Y8.398
G1X96.065Y8.623
G1X95.968Y8.891
G1X95.91Y9.084
G1X95.89Y9.248
G1X95.915Y9.364
G1X95.988Y9.475
G1X96.099Y9.557
G1X96.236Y9.584
G1X96.352Y9.567
G1X96.451Y9.515
G1X96.533Y9.43
G1X96.598Y9.31
G1X96.683Y9.026
G1X96.712Y8.711
G1X96.681Y8.36
G1X96.588Y7.965
G1X96.433Y7.526
G1X96.216Y7.041
G1X95.96Y6.569
G1X95.683Y6.16
G1X95.386Y5.815
G1X95.068Y5.533
G1X94.749Y5.315
G1X94.441Y5.16
G1X94.144Y5.067
G1X93.859Y5.036
G1X93.686Y5.05
G1X93.534Y5.091
G1X93.402Y5.159
G1X93.291Y5.253
G1X93.205Y5.368
G1X93.144Y5.495
G1X93.107Y5.634
G1X93.094Y5.786
G1X93.111Y6.018
G1X93.162Y6.281
G1X93.246Y6.573
G1X93.363Y6.897
G1X93.664Y7.552
G1X94.019Y8.163
G1X94.149Y8.364
G1X94.258Y8.539
G1X94.348Y8.687
G1X94.417Y8.809
G1X94.208Y8.708
G1X94.066Y8.674
G1X93.958Y8.692
G1X93.84Y8.743
G1X93.712Y8.829
G1X93.575Y8.948
G1X93.455Y9.059
G1X93.349Y9.138
G1X93.256Y9.186
G1X93.177Y9.202
G1X93.088Y9.18
G1X93.058Y9.114
G1X93.074Y9.032
G1X93.12Y8.933
G1X93.233Y8.725
G1X93.27Y8.576
G1X93.242Y8.459
G1X93.156Y8.333
G1X93.032Y8.24
G1X92.877Y8.209
G1X92.728Y8.239
G1X92.609Y8.328
G1X92.535Y8.461
; Layer C00 Pass 2 of 3
G1X92.51Y8.612
G1X92.529Y8.78
G1X92.583Y8.938
G1X92.673Y9.085
G1X92.8Y9.222
G1X92.948Y9.338
G1X93.1Y9.42
G1X93.253Y9.469
G1X93.41Y9.486
G1X93.633Y9.448
G1X93.901Y9.336
G1X94.09Y9.248
G1X94.258Y9.185
G1X94.407Y9.147
G1X94.536Y9.134
G1X94.61Y9.148
G1X94.68Y9.187
G1X94.746Y9.254
G1X94.81Y9.346
G1X94.869Y9.437
G1X94.922Y9.501
G1X94.97Y9.54
G1X95.012Y9.553
G1X95.059Y9.541
G1X95.11Y9.506
G1X95.149Y9.463
G1X95.161Y9.413
G1X95.142Y9.341
G1X95.083Y9.249
G1X94.984Y9.137
G1X94.846Y9.005
G1X94.676Y8.81
G1X94.513Y8.544
G1X94.356Y8.208
G1X94.205Y7.801
G1X94.079Y7.377
G1X93.988Y6.985
G1X93.934Y6.623
G1X93.916Y6.292
G1Y6.103
G1X93.938Y5.938
G1X93.966Y5.798
G1X94.004Y5.682
G1X94.056Y5.594
G1X94.118Y5.531
G1X94.19Y5.493
G1X94.273Y5.481
G1X94.428Y5.508
G1X94.609Y5.588
G1X94.815Y5.722
G1X95.048Y5.91
G1X95.283Y6.14
G1X95.497Y6.396
G1X95.691Y6.677
G1X95.864Y6.985
G1X96.007Y7.293
G1X96.108Y7.578
G1X96.17Y7.838
G1X96.19Y8.075
G1X96.176Y8.215
G1X96.134Y8.398
G1X96.065Y8.623
G1X95.968Y8.891
G1X95.91Y9.084
G1X95.89Y9.248
G1X95.915Y9.364
G1X95.988Y9.475
G1X96.099Y9.557
G1X96.236Y9.584
G1X96.352Y9.567
G1X96.451Y9.515
G1X96.533Y9.43
G1X96.598Y9.31
G1X96.683Y9.026
G1X96.712Y8.711
G1X96.681Y8.36
G1X96.588Y7.965
G1X96.433Y7.526
G1X96.216Y7.041
G1X95.96Y6.569
G1X95.683Y6.16
G1X95.386Y5.815
G1X95.068Y5.533
G1X94.749Y5.315
G1X94.441Y5.16
G1X94.144Y5.067
G1X93.859Y5.036
G1X93.686Y5.05
G1X93.534Y5.091
G1X93.402Y5.159
G1X93.291Y5.253
G1X93.205Y5.368
G1X93.144Y5.495
G1X93.107Y5.634
G1X93.094Y5.786
G1X93.111Y6.018
G1X93.162Y6.281
G1X93.246Y6.573
G1X93.363Y6.897
G1X93.664Y7.552
G1X94.019Y8.163
G1X94.149Y8.364
G1X94.258Y8.539
G1X94.348Y8.687
G1X94.417Y8.809
G1X94.208Y8.708
G1X94.066Y8.674
G1X93.958Y8.692
G1X93.84Y8.743
G1X93.712Y8.829
G1X93.575Y8.948
G1X93.455Y9.059
G1X93.349Y9.138
G1X93.256Y9.186
G1X93.177Y9.202
G1X93.088Y9.18
G1X93.058Y9.114
G1X93.074Y9.032
G1X93.12Y8.933
G1X93.233Y8.725
G1X93.27Y8.576
G1X93.242Y8.459
G1X93.156Y8.333
G1X93.032Y8.24
G1X92.877Y8.209
G1X92.728Y8.239
G1X92.609Y8.328
G1X92.535Y8.461
; Layer C00 Pass 3 of 3
G1X92.51Y8.612
G1X92.529Y8.78
G1X92.583Y8.938
G1X92.673Y9.085
G1X92.8Y9.222
G1X92.948Y9.338
G1X93.1Y9.42
G1X93.253Y9.469
G1X93.41Y9.486
G1X93.633Y9.448
G1X93.901Y9.336
G1X94.09Y9.248
G1X94.258Y9.185
G1X94.407Y9.147
G1X94.536Y9.134
G1X94.61Y9.148
G1X94.68Y9.187
G1X94.746Y9.254
G1X94.81Y9.346
G1X94.869Y9.437
G1X94.922Y9.501
G1X94.97Y9.54
G1X95.012Y9.553
G1X95.059Y9.541
G1X95.11Y9.506
G1X95.149Y9.463
G1X95.161Y9.413
G1X95.142Y9.341
G1X95.083Y9.249
G1X94.984Y9.137
G1X94.846Y9.005
G1X94.676Y8.81
G1X94.513Y8.544
G1X94.356Y8.208
G1X94.205Y7.801
G1X94.079Y7.377
G1X93.988Y6.985
G1X93.934Y6.623
G1X93.916Y6.292
G1Y6.103
G1X93.938Y5.938
G1X93.966Y5.798
G1X94.004Y5.682
G1X94.056Y5.594
G1X94.118Y5.531
G1X94.19Y5.493
G1X94.273Y5.481
G1X94.428Y5.508
G1X94.609Y5.588
G1X94.815Y5.722
G1X95.048Y5.91
G1X95.283Y6.14
G1X95.497Y6.396
G1X95.691Y6.677
G1X95.864Y6.985
G1X96.007Y7.293
G1X96.108Y7.578
G1X96.17Y7.838
G1X96.19Y8.075
G1X96.176Y8.215
G1X96.134Y8.398
G1X96.065Y8.623
G1X95.968Y8.891
G1X95.91Y9.084
G1X95.89Y9.248
G1X95.915Y9.364
G1X95.988Y9.475
G1X96.099Y9.557
G1X96.236Y9.584
G1X96.352Y9.567
G1X96.451Y9.515
G1X96.533Y9.43
G1X96.598Y9.31
G1X96.683Y9.026
G1X96.712Y8.711
G1X96.681Y8.36
G1X96.588Y7.965
G1X96.433Y7.526
G1X96.216Y7.041
G1X95.96Y6.569
G1X95.683Y6.16
G1X95.386Y5.815
G1X95.068Y5.533
G1X94.749Y5.315
G1X94.441Y5.16
G1X94.144Y5.067
G1X93.859Y5.036
G1X93.686Y5.05
G1X93.534Y5.091
G1X93.402Y5.159
G1X93.291Y5.253
G1X93.205Y5.368
G1X93.144Y5.495
G1X93.107Y5.634
G1X93.094Y5.786
G1X93.111Y6.018
G1X93.162Y6.281
G1X93.246Y6.573
G1X93.363Y6.897
G1X93.664Y7.552
G1X94.019Y8.163
G1X94.149Y8.364
G1X94.258Y8.539
G1X94.348Y8.687
G1X94.417Y8.809
G1X94.208Y8.708
G1X94.066Y8.674
G1X93.958Y8.692
G1X93.84Y8.743
G1X93.712Y8.829
G1X93.575Y8.948
G1X93.455Y9.059
G1X93.349Y9.138
G1X93.256Y9.186
G1X93.177Y9.202
G1X93.088Y9.18
G1X93.058Y9.114
G1X93.074Y9.032
G1X93.12Y8.933
G1X93.233Y8.725
G1X93.27Y8.576
G1X93.242Y8.459
G1X93.156Y8.333
G1X93.032Y8.24
G1X92.877Y8.209
G1X92.728Y8.239
G1X92.609Y8.328
G1X92.535Y8.461
G0X97.084Y6.623
; Layer C00 Pass 1 of 3
G1X97.15Y6.688
G1X97.223Y6.735
G1X97.305Y6.763
G1X97.394
G1X97.558Y6.744
G1X97.688Y6.659
G1X97.774Y6.538
G1X97.802Y6.401
G1X97.785Y6.306
G1X97.735Y6.178
G1X97.677Y6.011
G1X97.657Y5.879
G1X97.674Y5.749
G1X97.725Y5.628
G1X97.809Y5.516
G1X97.926Y5.414
G1X98.066Y5.33
G1X98.218Y5.27
G1X98.382Y5.234
G1X98.557Y5.222
G1X98.891Y5.266
G1X99.201Y5.396
G1X99.488Y5.612
G1X99.75Y5.915
G1X99.97Y6.259
G1X100.126Y6.597
G1X100.22Y6.93
G1X100.252Y7.259
G1X100.242Y7.382
G1X100.212Y7.505
G1X100.162Y7.628
G1X100.091Y7.749
G1X100.003Y7.856
G1X99.892Y7.932
G1X99.76Y7.977
G1X99.606Y7.992
G1X99.493Y7.981
G1X99.365Y7.948
G1X99.224Y7.893
G1X99.068Y7.817
G1X98.963Y7.762
G1X98.881Y7.724
G1X98.821Y7.7
G1X98.784
G1X98.71Y7.718
G1X98.686Y7.796
G1X98.703Y7.845
G1X98.756Y7.894
G1X98.843Y7.943
G1X98.965Y7.992
G1X99.256Y8.132
G1X99.518Y8.265
G1X99.749Y8.393
G1X99.951Y8.516
G1X100.122Y8.632
G1X100.264Y8.743
G1X100.376Y8.849
G1X100.458Y8.948
G1X100.576Y9.142
G1X100.66Y9.332
G1X100.71Y9.517
G1X100.727Y9.698
G1X100.713Y9.883
G1X100.671Y10.048
G1X100.602Y10.191
G1X100.505Y10.313
G1X100.382Y10.41
G1X100.237Y10.479
G1X100.07Y10.521
G1X99.88Y10.535
G1X99.641Y10.513
G1X99.42Y10.447
G1X99.217Y10.337
G1X99.032Y10.183
G1X98.881Y10.002
G1X98.772Y9.805
G1X98.707Y9.591
G1X98.686Y9.362
G1X98.706Y9.171
G1X98.769Y9.031
G1X98.871Y8.95
G1X99.011Y8.922
G1X99.112Y8.935
G1X99.219Y8.974
G1X99.332Y9.039
G1X99.576Y9.226
G1X99.652Y9.258
G1X99.714Y9.239
G1X99.735Y9.181
G1X99.713Y9.097
G1X99.648Y9.005
G1X99.54Y8.906
G1X99.389Y8.798
G1X99.222Y8.701
G1X99.063Y8.632
G1X98.912Y8.59
G1X98.769Y8.576
G1X98.632Y8.589
G1X98.508Y8.628
G1X98.395Y8.693
G1X98.293Y8.783
G1X98.212Y8.892
G1X98.154Y9.009
G1X98.119Y9.133
G1X98.107Y9.264
G1X98.142Y9.554
G1X98.245Y9.824
G1X98.418Y10.076
G1X98.66Y10.307
G1X98.955Y10.502
G1X99.283Y10.641
G1X99.642Y10.724
G1X100.035Y10.752
G1X100.354Y10.73
G1X100.637Y10.665
G1X100.881Y10.557
G1X101.089Y10.406
G1X101.256Y10.226
G1X101.376Y10.034
G1X101.447Y9.828
G1X101.471Y9.61
G1X101.454Y9.43
G1X101.403Y9.253
G1X101.317Y9.079
G1X101.197Y8.907
G1X101.115Y8.821
G1X101.005Y8.733
G1X100.868Y8.643
G1X100.702Y8.552
G1X100.51Y8.458
G1X100.289Y8.363
G1X100.041Y8.267
G1X99.766Y8.168
G1X100.093Y8.143
G1X100.365Y8.074
G1X100.584Y7.96
G1X100.748Y7.801
G1X100.87Y7.619
G1X100.957Y7.428
G1X101.009Y7.228
G1X101.027Y7.021
G1X100.987Y6.652
G1X100.868Y6.3
G1X100.669Y5.965
G1X100.391Y5.646
G1X100.047Y5.375
G1X99.646Y5.181
G1X99.187Y5.065
G1X98.67Y5.026
G1X98.272Y5.049
G1X97.926Y5.119
G1X97.632Y5.235
G1X97.389Y5.398
G1X97.201Y5.594
G1X97.067Y5.805
G1X96.987Y6.031
G1X96.96Y6.271
G1X96.991Y6.46
G1X97.084Y6.623
; Layer C00 Pass 2 of 3
G1X97.15Y6.688
G1X97.223Y6.735
G1X97.305Y6.763
G1X97.394
G1X97.558Y6.744
G1X97.688Y6.659
G1X97.774Y6.538
G1X97.802Y6.401
G1X97.785Y6.306
G1X97.735Y6.178
G1X97.677Y6.011
G1X97.657Y5.879
G1X97.674Y5.749
G1X97.725Y5.628
G1X97.809Y5.516
G1X97.926Y5.414
G1X98.066Y5.33
G1X98.218Y5.27
G1X98.382Y5.234
G1X98.557Y5.222
G1X98.891Y5.266
G1X99.201Y5.396
G1X99.488Y5.612
G1X99.75Y5.915
G1X99.97Y6.259
G1X100.126Y6.597
G1X100.22Y6.93
G1X100.252Y7.259
G1X100.242Y7.382
G1X100.212Y7.505
G1X100.162Y7.628
G1X100.091Y7.749
G1X100.003Y7.856
G1X99.892Y7.932
G1X99.76Y7.977
G1X99.606Y7.992
G1X99.493Y7.981
G1X99.365Y7.948
G1X99.224Y7.893
G1X99.068Y7.817
G1X98.963Y7.762
G1X98.881Y7.724
G1X98.821Y7.7
G1X98.784
G1X98.71Y7.718
G1X98.686Y7.796
G1X98.703Y7.845
G1X98.756Y7.894
G1X98.843Y7.943
G1X98.965Y7.992
G1X99.256Y8.132
G1X99.518Y8.265
G1X99.749Y8.393
G1X99.951Y8.516
G1X100.122Y8.632
G1X100.264Y8.743
G1X100.376Y8.849
G1X100.458Y8.948
G1X100.576Y9.142
G1X100.66Y9.332
G1X100.71Y9.517
G1X100.727Y9.698
G1X100.713Y9.883
G1X100.671Y10.048
